(G-CODE GENERATED BY FLATCAM v8.994 - www.flatcam.org - Version Date: 2020/11/7)

(Name: 7alaLeader.svg_iso_combined_cnc)
(Type: G-code from Geometry)
(Units: MM)

(Created on Saturday, 11 November 2023 at 00:12)

(This preprocessor is the default preprocessor used by FlatCAM.)
(It is made to work with MACH3 compatible motion controllers.)

(TOOL DIAMETER: 0.35 mm)
(Feedrate_XY: 120.0 mm/min)
(Feedrate_Z: 60.0 mm/min)
(Feedrate rapids 1500.0 mm/min)

(Z_Cut: -0.4665 mm)
(Z_Move: 2.0 mm)
(Z Start: None mm)
(Z End: 15.0 mm)
(X,Y End: None mm)
(Steps per circle: 64)
(Preprocessor Geometry: default)

(X range:    3.3285 ...   88.7177  mm)
(Y range:    3.6657 ...   20.9172  mm)

(Spindle Speed: 0.0 RPM)
G21
G90
G94

G01 F120.00

M5
G00 Z15.0000
G00 X0.0000 Y0.0000
T1
M6    
(MSG, Change to Tool Dia = 0.3500)
M0
G00 Z15.0000

M03
G01 F120.00
G00 X5.2241 Y9.2651
G01 F60.00
G01 Z-0.4665
G01 F120.00
G01 X5.2180 Y9.2123
G01 X5.2072 Y9.1357
G01 X5.1918 Y9.0365
G01 X5.1723 Y8.9171
G01 X5.1488 Y8.7790
G01 X5.1228 Y8.6300
G01 X5.0924 Y8.4600
G01 X5.0602 Y8.2831
G01 X4.9955 Y7.9349
G01 X4.9266 Y7.5732
G01 X4.8606 Y7.2342
G01 X4.7694 Y6.7733
G01 X4.7160 Y6.4960
G01 X4.6847 Y6.3303
G01 X4.6532 Y6.1602
G01 X4.6233 Y5.9950
G01 X4.5949 Y5.8354
G01 X4.5631 Y5.6520
G01 X4.5340 Y5.4785
G01 X4.5077 Y5.3158
G01 X4.4853 Y5.1711
G01 X4.4649 Y5.0327
G01 X4.4485 Y4.9129
G01 X4.4353 Y4.8065
G01 X4.4257 Y4.7176
G01 X4.4198 Y4.6476
G01 X4.4178 Y4.6169
G01 X4.4167 Y4.5904
G01 X4.4162 Y4.5665
G01 X4.4163 Y4.5449
G01 X4.4173 Y4.5250
G01 X4.4189 Y4.5074
G01 X4.4211 Y4.4922
G01 X4.4240 Y4.4776
G01 X4.4280 Y4.4626
G01 X4.4327 Y4.4490
G01 X4.4397 Y4.4324
G01 X4.4473 Y4.4163
G01 X4.4557 Y4.4003
G01 X4.4649 Y4.3846
G01 X4.4777 Y4.3655
G01 X4.4890 Y4.3505
G01 X4.5012 Y4.3360
G01 X4.5143 Y4.3220
G01 X4.5317 Y4.3057
G01 X4.5466 Y4.2934
G01 X4.5622 Y4.2819
G01 X4.5785 Y4.2713
G01 X4.5953 Y4.2617
G01 X4.6126 Y4.2530
G01 X4.6303 Y4.2453
G01 X4.6483 Y4.2386
G01 X4.6665 Y4.2329
G01 X4.6888 Y4.2271
G01 X4.7072 Y4.2234
G01 X4.7313 Y4.2197
G01 X4.7534 Y4.2175
G01 X4.7813 Y4.2162
G01 X4.8064 Y4.2162
G01 X4.8349 Y4.2176
G01 X4.8635 Y4.2203
G01 X4.8925 Y4.2243
G01 X4.9218 Y4.2294
G01 X4.9515 Y4.2357
G01 X4.9733 Y4.2408
G01 X5.0038 Y4.2489
G01 X5.0395 Y4.2595
G01 X5.0818 Y4.2711
G01 X5.1220 Y4.2839
G01 X5.1523 Y4.2949
G01 X5.1819 Y4.3070
G01 X5.2109 Y4.3203
G01 X5.2391 Y4.3350
G01 X5.2645 Y4.3499
G01 X5.2844 Y4.3629
G01 X5.3039 Y4.3767
G01 X5.3227 Y4.3915
G01 X5.3430 Y4.4091
G01 X5.3604 Y4.4259
G01 X5.3770 Y4.4435
G01 X5.3928 Y4.4619
G01 X5.4076 Y4.4811
G01 X5.4214 Y4.5010
G01 X5.4343 Y4.5215
G01 X5.4462 Y4.5425
G01 X5.4571 Y4.5640
G01 X5.4693 Y4.5913
G01 X5.4782 Y4.6139
G01 X5.4869 Y4.6389
G01 X5.4941 Y4.6621
G01 X5.5005 Y4.6858
G01 X5.5075 Y4.7162
G01 X5.5127 Y4.7423
G01 X5.5194 Y4.7841
G01 X5.5227 Y4.8097
G01 X5.5275 Y4.8534
G01 X5.5372 Y4.9188
G01 X5.5544 Y5.0241
G01 X5.5781 Y5.1602
G01 X5.6104 Y5.3393
G01 X5.6489 Y5.5473
G01 X5.6918 Y5.7738
G01 X5.7380 Y6.0137
G01 X5.7986 Y6.3228
G01 X5.8623 Y6.6422
G01 X5.9264 Y6.9578
G01 X5.9917 Y7.2740
G01 X6.2922 Y8.7905
G01 X6.3523 Y9.0956
G01 X6.3905 Y9.2924
G01 X6.4411 Y9.2953
G01 X6.4988 Y9.2978
G01 X6.5633 Y9.3000
G01 X6.6418 Y9.3020
G01 X6.7984 Y9.3043
G01 X7.0088 Y9.3053
G01 X7.0902 Y9.3070
G01 X7.1542 Y9.3094
G01 X7.2105 Y9.3124
G01 X7.2736 Y9.3166
G01 X7.3364 Y9.3217
G01 X7.4144 Y9.3294
G01 X7.4986 Y9.3395
G01 X7.5813 Y9.3513
G01 X7.6625 Y9.3646
G01 X7.7420 Y9.3796
G01 X7.8197 Y9.3960
G01 X7.8955 Y9.4141
G01 X7.9689 Y9.4335
G01 X8.0341 Y9.4525
G01 X8.0974 Y9.4728
G01 X8.1588 Y9.4943
G01 X8.2129 Y9.5149
G01 X8.2699 Y9.5386
G01 X8.3204 Y9.5614
G01 X8.3474 Y9.5744
G01 X8.3732 Y9.5875
G01 X8.4199 Y9.6127
G01 X8.4490 Y9.6295
G01 X8.4737 Y9.6447
G01 X8.5011 Y9.6625
G01 X8.5239 Y9.6781
G01 X8.5467 Y9.6947
G01 X8.5682 Y9.7112
G01 X8.5891 Y9.7282
G01 X8.6092 Y9.7457
G01 X8.6287 Y9.7637
G01 X8.6474 Y9.7822
G01 X8.6654 Y9.8014
G01 X8.6826 Y9.8211
G01 X8.6990 Y9.8415
G01 X8.7135 Y9.8612
G01 X8.7281 Y9.8829
G01 X8.7400 Y9.9023
G01 X8.7509 Y9.9124
G01 X8.7672 Y9.9245
G01 X8.7891 Y9.9385
G01 X8.8159 Y9.9533
G01 X8.8468 Y9.9681
G01 X8.8758 Y9.9803
G01 X8.9069 Y9.9919
G01 X8.9395 Y10.0026
G01 X8.9734 Y10.0122
G01 X9.0079 Y10.0205
G01 X9.0312 Y10.0252
G01 X9.0487 Y10.0283
G01 X9.0836 Y10.0333
G01 X9.1066 Y10.0357
G01 X9.1363 Y10.0378
G01 X9.1571 Y10.0398
G01 X9.2790 Y10.0539
G01 X9.3190 Y10.0575
G01 X9.3205 Y10.0374
G01 X9.3211 Y10.0139
G01 X9.3209 Y9.9863
G01 X9.3199 Y9.9580
G01 X9.3180 Y9.9265
G01 X9.3152 Y9.8918
G01 X9.3115 Y9.8539
G01 X9.3074 Y9.8175
G01 X9.2992 Y9.7527
G01 X9.2890 Y9.6810
G01 X9.2768 Y9.6021
G01 X9.2626 Y9.5160
G01 X9.2463 Y9.4223
G01 X9.2279 Y9.3208
G01 X9.2059 Y9.2026
G01 X9.1814 Y9.0748
G01 X9.1296 Y8.8111
G01 X9.0644 Y8.4867
G01 X8.9808 Y8.0755
G01 X8.7796 Y7.0912
G01 X8.7349 Y6.8692
G01 X8.6954 Y6.6692
G01 X8.6561 Y6.4656
G01 X8.6188 Y6.2681
G01 X8.5838 Y6.0775
G01 X8.5433 Y5.8504
G01 X8.5068 Y5.6371
G01 X8.4745 Y5.4393
G01 X8.4468 Y5.2586
G01 X8.4347 Y5.1752
G01 X8.4238 Y5.0966
G01 X8.4143 Y5.0230
G01 X8.4065 Y4.9589
G01 X8.3999 Y4.8994
G01 X8.3945 Y4.8444
G01 X8.3903 Y4.7942
G01 X8.3874 Y4.7487
G01 X8.3862 Y4.7212
G01 X8.3857 Y4.6960
G01 X8.3857 Y4.6737
G01 X8.3864 Y4.6534
G01 X8.3876 Y4.6351
G01 X8.3895 Y4.6177
G01 X8.3920 Y4.6019
G01 X8.3954 Y4.5861
G01 X8.3992 Y4.5727
G01 X8.4036 Y4.5598
G01 X8.4144 Y4.5333
G01 X8.4232 Y4.5138
G01 X8.4343 Y4.4920
G01 X8.4432 Y4.4761
G01 X8.4526 Y4.4606
G01 X8.4626 Y4.4456
G01 X8.4750 Y4.4283
G01 X8.4862 Y4.4142
G01 X8.5014 Y4.3966
G01 X8.5136 Y4.3837
G01 X8.5290 Y4.3689
G01 X8.5423 Y4.3572
G01 X8.5561 Y4.3462
G01 X8.5703 Y4.3358
G01 X8.5848 Y4.3260
G01 X8.6040 Y4.3145
G01 X8.6193 Y4.3063
G01 X8.6383 Y4.2973
G01 X8.6542 Y4.2906
G01 X8.6748 Y4.2832
G01 X8.6911 Y4.2781
G01 X8.7109 Y4.2730
G01 X8.7274 Y4.2695
G01 X8.7439 Y4.2668
G01 X8.7604 Y4.2646
G01 X8.7818 Y4.2629
G01 X8.7983 Y4.2622
G01 X8.8179 Y4.2623
G01 X8.8342 Y4.2629
G01 X8.8555 Y4.2647
G01 X8.8716 Y4.2667
G01 X8.8905 Y4.2698
G01 X8.9114 Y4.2740
G01 X8.9297 Y4.2786
G01 X8.9503 Y4.2845
G01 X8.9680 Y4.2903
G01 X8.9882 Y4.2978
G01 X9.0054 Y4.3049
G01 X9.0252 Y4.3139
G01 X9.0418 Y4.3221
G01 X9.0611 Y4.3325
G01 X9.0771 Y4.3418
G01 X9.0959 Y4.3536
G01 X9.1113 Y4.3639
G01 X9.1297 Y4.3769
G01 X9.1493 Y4.3921
G01 X9.1638 Y4.4039
G01 X9.1812 Y4.4190
G01 X9.1950 Y4.4317
G01 X9.2132 Y4.4495
G01 X9.2308 Y4.4679
G01 X9.2467 Y4.4857
G01 X9.2592 Y4.5003
G01 X9.2744 Y4.5192
G01 X9.2902 Y4.5403
G01 X9.3016 Y4.5563
G01 X9.3164 Y4.5785
G01 X9.3298 Y4.5998
G01 X9.3435 Y4.6234
G01 X9.3532 Y4.6411
G01 X9.3658 Y4.6658
G01 X9.3770 Y4.6894
G01 X9.3854 Y4.7083
G01 X9.3955 Y4.7329
G01 X9.4030 Y4.7525
G01 X9.4120 Y4.7781
G01 X9.4236 Y4.8154
G01 X9.4335 Y4.8525
G01 X9.4406 Y4.8766
G01 X9.4503 Y4.9066
G01 X9.4618 Y4.9395
G01 X9.4752 Y4.9753
G01 X9.4887 Y5.0096
G01 X9.5035 Y5.0458
G01 X9.5216 Y5.0882
G01 X9.5431 Y5.1372
G01 X9.5687 Y5.1932
G01 X9.5963 Y5.2517
G01 X9.6257 Y5.3125
G01 X9.6569 Y5.3754
G01 X9.6897 Y5.4403
G01 X9.7242 Y5.5068
G01 X9.7600 Y5.5749
G01 X9.7972 Y5.6442
G01 X9.8356 Y5.7148
G01 X9.8752 Y5.7863
G01 X9.9157 Y5.8586
G01 X9.9996 Y6.0050
G01 X10.0462 Y6.0848
G01 X10.0899 Y6.1585
G01 X10.1787 Y6.3056
G01 X10.2687 Y6.4508
G01 X10.3138 Y6.5223
G01 X10.3590 Y6.5929
G01 X10.4040 Y6.6622
G01 X10.4488 Y6.7303
G01 X10.5227 Y6.8403
G01 X10.5951 Y6.9453
G01 X10.6656 Y7.0445
G01 X10.6999 Y7.0916
G01 X10.7335 Y7.1369
G01 X10.7664 Y7.1803
G01 X10.7984 Y7.2217
G01 X10.8296 Y7.2609
G01 X10.8567 Y7.2943
G01 X10.8858 Y7.3291
G01 X10.9109 Y7.3583
G01 X10.9376 Y7.3883
G01 X10.9622 Y7.4147
G01 X10.9920 Y7.4449
G01 X11.0219 Y7.4741
G01 X11.0515 Y7.5018
G01 X11.0805 Y7.5280
G01 X11.1091 Y7.5526
G01 X11.1371 Y7.5756
G01 X11.1646 Y7.5971
G01 X11.1967 Y7.6209
G01 X11.2228 Y7.6390
G01 X11.2531 Y7.6586
G01 X11.2775 Y7.6732
G01 X11.3056 Y7.6887
G01 X11.3324 Y7.7020
G01 X11.3578 Y7.7132
G01 X11.3816 Y7.7222
G01 X11.4038 Y7.7293
G01 X11.4242 Y7.7344
G01 X11.4457 Y7.7382
G01 X11.4646 Y7.7400
G01 X11.4809 Y7.7400
G01 X11.4968 Y7.7384
G01 X11.5103 Y7.7353
G01 X11.5163 Y7.7333
G01 X11.5235 Y7.7304
G01 X11.5304 Y7.7268
G01 X11.5359 Y7.7235
G01 X11.5443 Y7.7174
G01 X11.5531 Y7.7097
G01 X11.5623 Y7.7001
G01 X11.5699 Y7.6908
G01 X11.5738 Y7.6764
G01 X11.5785 Y7.6568
G01 X11.5885 Y7.6080
G01 X11.5971 Y7.5593
G01 X11.6060 Y7.5031
G01 X11.6151 Y7.4400
G01 X11.6243 Y7.3708
G01 X11.6335 Y7.2959
G01 X11.6426 Y7.2160
G01 X11.6515 Y7.1316
G01 X11.6595 Y7.0506
G01 X11.6735 Y6.8959
G01 X11.6858 Y6.7418
G01 X11.6959 Y6.5996
G01 X11.7091 Y6.3885
G01 X11.7211 Y6.2265
G01 X11.7281 Y6.1441
G01 X11.7355 Y6.0644
G01 X11.7433 Y5.9874
G01 X11.7505 Y5.9220
G01 X11.7604 Y5.8409
G01 X11.7708 Y5.7633
G01 X11.7820 Y5.6885
G01 X11.7926 Y5.6242
G01 X11.8052 Y5.5553
G01 X11.8173 Y5.4957
G01 X11.8316 Y5.4321
G01 X11.8453 Y5.3769
G01 X11.8597 Y5.3242
G01 X11.8749 Y5.2740
G01 X11.8892 Y5.2306
G01 X11.9062 Y5.1840
G01 X11.9224 Y5.1435
G01 X11.9413 Y5.1004
G01 X11.9596 Y5.0626
G01 X11.9785 Y5.0269
G01 X11.9985 Y4.9925
G01 X12.0196 Y4.9595
G01 X12.0418 Y4.9278
G01 X12.0653 Y4.8975
G01 X12.0900 Y4.8686
G01 X12.1160 Y4.8413
G01 X12.1431 Y4.8154
G01 X12.1704 Y4.7921
G01 X12.1882 Y4.7782
G01 X12.2084 Y4.7634
G01 X12.2271 Y4.7508
G01 X12.2482 Y4.7375
G01 X12.2676 Y4.7263
G01 X12.2895 Y4.7145
G01 X12.3095 Y4.7047
G01 X12.3334 Y4.6940
G01 X12.3565 Y4.6845
G01 X12.3811 Y4.6755
G01 X12.4021 Y4.6685
G01 X12.4272 Y4.6610
G01 X12.4515 Y4.6546
G01 X12.4772 Y4.6486
G01 X12.5031 Y4.6434
G01 X12.5302 Y4.6387
G01 X12.5566 Y4.6349
G01 X12.5832 Y4.6318
G01 X12.6101 Y4.6293
G01 X12.6420 Y4.6271
G01 X12.6750 Y4.6257
G01 X12.7084 Y4.6250
G01 X12.7311 Y4.6252
G01 X12.7516 Y4.6262
G01 X12.7734 Y4.6283
G01 X12.7928 Y4.6309
G01 X12.8162 Y4.6349
G01 X12.8395 Y4.6397
G01 X12.8629 Y4.6453
G01 X12.8915 Y4.6531
G01 X12.9164 Y4.6605
G01 X12.9459 Y4.6702
G01 X12.9829 Y4.6834
G01 X13.0206 Y4.6978
G01 X13.0590 Y4.7136
G01 X13.0981 Y4.7305
G01 X13.1377 Y4.7486
G01 X13.1783 Y4.7678
G01 X13.2190 Y4.7879
G01 X13.2665 Y4.8124
G01 X13.3083 Y4.8345
G01 X13.3566 Y4.8610
G01 X13.3986 Y4.8848
G01 X13.4473 Y4.9132
G01 X13.4956 Y4.9422
G01 X13.5373 Y4.9678
G01 X13.5851 Y4.9981
G01 X13.6321 Y5.0287
G01 X13.6786 Y5.0598
G01 X13.7180 Y5.0869
G01 X13.7623 Y5.1183
G01 X13.7999 Y5.1456
G01 X13.8419 Y5.1770
G01 X13.8772 Y5.2044
G01 X13.9162 Y5.2356
G01 X13.9485 Y5.2625
G01 X13.9800 Y5.2896
G01 X14.0090 Y5.3158
G01 X14.0371 Y5.3422
G01 X14.0599 Y5.3648
G01 X14.0844 Y5.3905
G01 X14.1042 Y5.4125
G01 X14.1237 Y5.4359
G01 X14.1411 Y5.4585
G01 X14.1603 Y5.4242
G01 X14.1768 Y5.3932
G01 X14.1937 Y5.3602
G01 X14.2109 Y5.3255
G01 X14.2282 Y5.2889
G01 X14.2458 Y5.2505
G01 X14.2755 Y5.1820
G01 X14.2888 Y5.1523
G01 X14.3031 Y5.1220
G01 X14.3201 Y5.0879
G01 X14.3427 Y5.0455
G01 X14.3642 Y5.0078
G01 X14.3887 Y4.9676
G01 X14.4120 Y4.9318
G01 X14.4267 Y4.9103
G01 X14.4445 Y4.8854
G01 X14.4603 Y4.8641
G01 X14.4789 Y4.8401
G01 X14.5118 Y4.8000
G01 X14.5315 Y4.7775
G01 X14.5491 Y4.7582
G01 X14.5695 Y4.7366
G01 X14.5877 Y4.7181
G01 X14.6089 Y4.6975
G01 X14.6277 Y4.6799
G01 X14.6496 Y4.6603
G01 X14.6691 Y4.6435
G01 X14.6917 Y4.6248
G01 X14.7117 Y4.6090
G01 X14.7350 Y4.5913
G01 X14.7591 Y4.5738
G01 X14.7836 Y4.5568
G01 X14.8085 Y4.5404
G01 X14.8336 Y4.5245
G01 X14.8592 Y4.5092
G01 X14.8850 Y4.4945
G01 X14.9111 Y4.4803
G01 X14.9376 Y4.4666
G01 X14.9644 Y4.4535
G01 X14.9914 Y4.4410
G01 X15.0187 Y4.4290
G01 X15.0463 Y4.4176
G01 X15.0742 Y4.4067
G01 X15.1024 Y4.3963
G01 X15.1313 Y4.3863
G01 X15.1599 Y4.3771
G01 X15.1888 Y4.3683
G01 X15.2179 Y4.3601
G01 X15.2517 Y4.3514
G01 X15.2813 Y4.3443
G01 X15.3116 Y4.3376
G01 X15.3417 Y4.3316
G01 X15.3765 Y4.3253
G01 X15.4069 Y4.3204
G01 X15.4381 Y4.3159
G01 X15.4690 Y4.3120
G01 X15.5048 Y4.3082
G01 X15.5360 Y4.3054
G01 X15.5679 Y4.3030
G01 X15.6044 Y4.3009
G01 X15.6367 Y4.2997
G01 X15.7008 Y4.2986
G01 X15.7656 Y4.2995
G01 X15.7982 Y4.3006
G01 X15.8360 Y4.3025
G01 X15.9024 Y4.3073
G01 X15.9689 Y4.3139
G01 X16.0024 Y4.3179
G01 X16.0413 Y4.3231
G01 X16.1092 Y4.3335
G01 X16.1827 Y4.3467
G01 X16.2516 Y4.3609
G01 X16.3261 Y4.3780
G01 X16.3958 Y4.3958
G01 X16.4712 Y4.4169
G01 X16.5417 Y4.4383
G01 X16.6179 Y4.4632
G01 X16.6890 Y4.4881
G01 X16.7661 Y4.5168
G01 X16.8432 Y4.5474
G01 X16.9152 Y4.5776
G01 X16.9930 Y4.6119
G01 X17.0709 Y4.6481
G01 X17.1492 Y4.6863
G01 X17.2218 Y4.7233
G01 X17.3001 Y4.7649
G01 X17.3728 Y4.8052
G01 X17.4515 Y4.8505
G01 X17.5299 Y4.8975
G01 X17.6027 Y4.9427
G01 X17.6812 Y4.9932
G01 X17.7597 Y5.0456
G01 X17.8323 Y5.0956
G01 X17.9104 Y5.1513
G01 X17.9827 Y5.2045
G01 X18.0606 Y5.2636
G01 X18.1383 Y5.3245
G01 X18.2157 Y5.3871
G01 X18.2926 Y5.4513
G01 X18.3695 Y5.5175
G01 X18.4457 Y5.5851
G01 X18.5216 Y5.6545
G01 X18.5913 Y5.7200
G01 X18.6664 Y5.7926
G01 X18.7353 Y5.8612
G01 X18.8092 Y5.9368
G01 X18.8771 Y6.0083
G01 X18.9498 Y6.0871
G01 X19.0166 Y6.1615
G01 X19.0881 Y6.2433
G01 X19.1535 Y6.3203
G01 X19.2237 Y6.4055
G01 X19.2930 Y6.4921
G01 X19.3667 Y6.5870
G01 X19.3884 Y6.6155
G01 X19.4250 Y6.6649
G01 X19.5069 Y6.7773
G01 X19.5445 Y6.8300
G01 X19.5798 Y6.8804
G01 X19.6133 Y6.9291
G01 X19.6444 Y6.9753
G01 X19.6737 Y7.0198
G01 X19.6965 Y7.0555
G01 X19.7180 Y7.0901
G01 X19.7381 Y7.1234
G01 X19.7569 Y7.1557
G01 X19.7713 Y7.1814
G01 X19.7878 Y7.2120
G01 X19.8027 Y7.2410
G01 X19.8144 Y7.2651
G01 X19.8270 Y7.2927
G01 X19.8369 Y7.3161
G01 X19.8473 Y7.3426
G01 X19.8550 Y7.3645
G01 X19.8618 Y7.3863
G01 X19.8679 Y7.4082
G01 X19.8729 Y7.4301
G01 X19.8765 Y7.4489
G01 X19.8794 Y7.4692
G01 X19.8814 Y7.4920
G01 X19.8821 Y7.5153
G01 X19.8813 Y7.5390
G01 X19.8790 Y7.5603
G01 X19.8754 Y7.5813
G01 X19.8700 Y7.6031
G01 X19.8632 Y7.6237
G01 X19.8560 Y7.6415
G01 X19.8475 Y7.6589
G01 X19.8378 Y7.6756
G01 X19.8271 Y7.6915
G01 X19.8130 Y7.7095
G01 X19.7988 Y7.7250
G01 X19.7782 Y7.7447
G01 X19.7618 Y7.7587
G01 X19.7440 Y7.7721
G01 X19.7253 Y7.7843
G01 X19.7091 Y7.7935
G01 X19.6954 Y7.8002
G01 X19.6865 Y7.8041
G01 X19.6680 Y7.8111
G01 X19.6487 Y7.8169
G01 X19.6289 Y7.8213
G01 X19.6088 Y7.8243
G01 X19.5884 Y7.8258
G01 X19.5682 Y7.8258
G01 X19.5482 Y7.8244
G01 X19.5287 Y7.8216
G01 X19.5058 Y7.8167
G01 X19.4874 Y7.8114
G01 X19.4654 Y7.8034
G01 X19.4446 Y7.7943
G01 X19.4252 Y7.7843
G01 X19.4028 Y7.7711
G01 X19.3814 Y7.7567
G01 X19.3608 Y7.7413
G01 X19.3359 Y7.7207
G01 X19.3147 Y7.7015
G01 X19.2903 Y7.6775
G01 X19.2699 Y7.6561
G01 X19.2451 Y7.6285
G01 X19.2118 Y7.5891
G01 X19.1920 Y7.5643
G01 X19.1718 Y7.5384
G01 X19.1447 Y7.5024
G01 X19.0910 Y7.4290
G01 X19.0424 Y7.3639
G01 X18.9936 Y7.2995
G01 X18.9401 Y7.2303
G01 X18.8997 Y7.1790
G01 X18.8547 Y7.1226
G01 X18.8095 Y7.0670
G01 X18.7641 Y7.0120
G01 X18.7140 Y6.9524
G01 X18.6590 Y6.8883
G01 X18.6085 Y6.8306
G01 X18.5532 Y6.7685
G01 X18.5024 Y6.7126
G01 X18.4467 Y6.6526
G01 X18.3909 Y6.5938
G01 X18.3350 Y6.5360
G01 X18.2836 Y6.4840
G01 X18.2322 Y6.4330
G01 X18.1806 Y6.3829
G01 X18.1290 Y6.3338
G01 X18.0774 Y6.2857
G01 X18.0257 Y6.2385
G01 X17.9740 Y6.1924
G01 X17.9176 Y6.1432
G01 X17.8659 Y6.0991
G01 X17.8143 Y6.0561
G01 X17.7626 Y6.0141
G01 X17.7110 Y5.9731
G01 X17.6595 Y5.9332
G01 X17.6081 Y5.8944
G01 X17.5567 Y5.8566
G01 X17.5008 Y5.8166
G01 X17.4450 Y5.7778
G01 X17.3894 Y5.7404
G01 X17.3340 Y5.7043
G01 X17.2788 Y5.6695
G01 X17.2238 Y5.6361
G01 X17.1690 Y5.6039
G01 X17.1145 Y5.5732
G01 X17.0558 Y5.5414
G01 X17.0019 Y5.5135
G01 X16.9483 Y5.4869
G01 X16.8950 Y5.4617
G01 X16.8378 Y5.4361
G01 X16.7853 Y5.4138
G01 X16.7332 Y5.3930
G01 X16.6816 Y5.3736
G01 X16.6262 Y5.3541
G01 X16.5797 Y5.3390
G01 X16.5294 Y5.3239
G01 X16.4797 Y5.3102
G01 X16.4305 Y5.2979
G01 X16.3818 Y5.2871
G01 X16.3337 Y5.2777
G01 X16.2862 Y5.2697
G01 X16.2393 Y5.2632
G01 X16.1816 Y5.2565
G01 X16.1309 Y5.2519
G01 X16.0817 Y5.2487
G01 X16.0273 Y5.2468
G01 X15.9813 Y5.2466
G01 X15.9307 Y5.2480
G01 X15.8821 Y5.2512
G01 X15.8356 Y5.2559
G01 X15.8020 Y5.2606
G01 X15.7697 Y5.2661
G01 X15.7385 Y5.2725
G01 X15.7086 Y5.2797
G01 X15.6798 Y5.2877
G01 X15.6521 Y5.2965
G01 X15.6256 Y5.3060
G01 X15.5962 Y5.3181
G01 X15.5721 Y5.3291
G01 X15.5454 Y5.3429
G01 X15.5237 Y5.3554
G01 X15.4997 Y5.3709
G01 X15.4801 Y5.3848
G01 X15.4585 Y5.4019
G01 X15.4382 Y5.4199
G01 X15.4190 Y5.4388
G01 X15.4009 Y5.4587
G01 X15.3839 Y5.4796
