(G-CODE GENERATED BY FLATCAM v8.994 - www.flatcam.org - Version Date: 2020/11/7)

(Name: 7alaLeader.svg_cutout_cnc)
(Type: G-code from Geometry)
(Units: MM)

(Created on Saturday, 11 November 2023 at 00:14)

(This preprocessor is the default preprocessor used by FlatCAM.)
(It is made to work with MACH3 compatible motion controllers.)

(TOOL DIAMETER: 2.0 mm)
(Feedrate_XY: 120.0 mm/min)
(Feedrate_Z: 60.0 mm/min)
(Feedrate rapids 1500.0 mm/min)

(Z_Cut: -1.8 mm)
(DepthPerCut: 0.6 mm <=>3 passes)
(Z_Move: 2.0 mm)
(Z Start: None mm)
(Z End: 15.0 mm)
(X,Y End: None mm)
(Steps per circle: 64)
(Preprocessor Geometry: default)

(X range:   -0.0965 ...   92.1427  mm)
(Y range:    0.2407 ...   24.3422  mm)

(Spindle Speed: 0.0 RPM)
G21
G90
G94

G01 F120.00

M5
G00 Z15.0000
G00 X0.0000 Y0.0000
T1
M6    
(MSG, Change to Tool Dia = 2.0000)
M0
G00 Z15.0000

M03
G01 F120.00
G00 X-0.0965 Y11.8914
G01 F60.00
G01 Z-0.6000
G01 F120.00
G01 X-0.0965 Y3.8407
G01 X-0.0792 Y3.4878
G01 X-0.0273 Y3.1383
G01 X0.0585 Y2.7956
G01 X0.1775 Y2.4630
G01 X0.3286 Y2.1436
G01 X0.5102 Y1.8406
G01 X0.7207 Y1.5568
G01 X0.9579 Y1.2951
G01 X1.2197 Y1.0578
G01 X1.5035 Y0.8474
G01 X1.8065 Y0.6657
G01 X2.1258 Y0.5147
G01 X2.4585 Y0.3957
G01 X2.8012 Y0.3098
G01 X3.1506 Y0.2580
G01 X3.5035 Y0.2407
G01 X88.5427 Y0.2407
G01 X88.8956 Y0.2580
G01 X89.2451 Y0.3098
G01 X89.5878 Y0.3957
G01 X89.9204 Y0.5147
G01 X90.2398 Y0.6657
G01 X90.5428 Y0.8474
G01 X90.8266 Y1.0578
G01 X91.0883 Y1.2951
G01 X91.3256 Y1.5568
G01 X91.5360 Y1.8406
G01 X91.7177 Y2.1436
G01 X91.8687 Y2.4630
G01 X91.9877 Y2.7956
G01 X92.0736 Y3.1383
G01 X92.1254 Y3.4878
G01 X92.1427 Y3.8407
G01 X92.1427 Y11.8914
G00 X92.1427 Y11.8914
G01 F60.00
G01 Z-1.2000
G01 F120.00
G01 X92.1427 Y3.8407
G01 X92.1254 Y3.4878
G01 X92.0736 Y3.1383
G01 X91.9877 Y2.7956
G01 X91.8687 Y2.4630
G01 X91.7177 Y2.1436
G01 X91.5360 Y1.8406
G01 X91.3256 Y1.5568
G01 X91.0883 Y1.2951
G01 X90.8266 Y1.0578
G01 X90.5428 Y0.8474
G01 X90.2398 Y0.6657
G01 X89.9204 Y0.5147
G01 X89.5878 Y0.3957
G01 X89.2451 Y0.3098
G01 X88.8956 Y0.2580
G01 X88.5427 Y0.2407
G01 X3.5035 Y0.2407
G01 X3.1506 Y0.2580
G01 X2.8012 Y0.3098
G01 X2.4585 Y0.3957
G01 X2.1258 Y0.5147
G01 X1.8065 Y0.6657
G01 X1.5035 Y0.8474
G01 X1.2197 Y1.0578
G01 X0.9579 Y1.2951
G01 X0.7207 Y1.5568
G01 X0.5102 Y1.8406
G01 X0.3286 Y2.1436
G01 X0.1775 Y2.4630
G01 X0.0585 Y2.7956
G01 X-0.0273 Y3.1383
G01 X-0.0792 Y3.4878
G01 X-0.0965 Y3.8407
G01 X-0.0965 Y11.8914
G00 X-0.0965 Y11.8914
G01 F60.00
G01 Z-1.8000
G01 F120.00
G01 X-0.0965 Y3.8407
G01 X-0.0792 Y3.4878
G01 X-0.0273 Y3.1383
G01 X0.0585 Y2.7956
G01 X0.1775 Y2.4630
G01 X0.3286 Y2.1436
G01 X0.5102 Y1.8406
G01 X0.7207 Y1.5568
G01 X0.9579 Y1.2951
G01 X1.2197 Y1.0578
G01 X1.5035 Y0.8474
G01 X1.8065 Y0.6657
G01 X2.1258 Y0.5147
G01 X2.4585 Y0.3957
G01 X2.8012 Y0.3098
G01 X3.1506 Y0.2580
G01 X3.5035 Y0.2407
G01 X88.5427 Y0.2407
G01 X88.8956 Y0.2580
G01 X89.2451 Y0.3098
G01 X89.5878 Y0.3957
G01 X89.9204 Y0.5147
G01 X90.2398 Y0.6657
G01 X90.5428 Y0.8474
G01 X90.8266 Y1.0578
G01 X91.0883 Y1.2951
G01 X91.3256 Y1.5568
G01 X91.5360 Y1.8406
G01 X91.7177 Y2.1436
G01 X91.8687 Y2.4630
G01 X91.9877 Y2.7956
G01 X92.0736 Y3.1383
G01 X92.1254 Y3.4878
G01 X92.1427 Y3.8407
G01 X92.1427 Y11.8914
G00 Z2.0000
G00 X-0.0965 Y17.8914
G01 F60.00
G01 Z-0.6000
G01 F120.00
G01 X-0.0965 Y20.7422
G01 X-0.0792 Y21.0951
G01 X-0.0273 Y21.4446
G01 X0.0585 Y21.7873
G01 X0.1775 Y22.1199
G01 X0.3286 Y22.4393
G01 X0.5102 Y22.7423
G01 X0.7207 Y23.0260
G01 X0.9579 Y23.2878
G01 X1.2197 Y23.5251
G01 X1.5035 Y23.7355
G01 X1.8065 Y23.9171
G01 X2.1258 Y24.0682
G01 X2.4585 Y24.1872
G01 X2.8012 Y24.2731
G01 X3.1506 Y24.3249
G01 X3.5035 Y24.3422
G01 X88.5427 Y24.3422
G01 X88.8956 Y24.3249
G01 X89.2451 Y24.2731
G01 X89.5878 Y24.1872
G01 X89.9204 Y24.0682
G01 X90.2398 Y23.9171
G01 X90.5428 Y23.7355
G01 X90.8266 Y23.5251
G01 X91.0883 Y23.2878
G01 X91.3256 Y23.0260
G01 X91.5360 Y22.7423
G01 X91.7177 Y22.4393
G01 X91.8687 Y22.1199
G01 X91.9877 Y21.7873
G01 X92.0736 Y21.4446
G01 X92.1254 Y21.0951
G01 X92.1427 Y20.7422
G01 X92.1427 Y17.8914
G00 X92.1427 Y17.8914
G01 F60.00
G01 Z-1.2000
G01 F120.00
G01 X92.1427 Y20.7422
G01 X92.1254 Y21.0951
G01 X92.0736 Y21.4446
G01 X91.9877 Y21.7873
G01 X91.8687 Y22.1199
G01 X91.7177 Y22.4393
G01 X91.5360 Y22.7423
G01 X91.3256 Y23.0260
G01 X91.0883 Y23.2878
G01 X90.8266 Y23.5251
G01 X90.5428 Y23.7355
G01 X90.2398 Y23.9171
G01 X89.9204 Y24.0682
G01 X89.5878 Y24.1872
G01 X89.2451 Y24.2731
G01 X88.8956 Y24.3249
G01 X88.5427 Y24.3422
G01 X3.5035 Y24.3422
G01 X3.1506 Y24.3249
G01 X2.8012 Y24.2731
G01 X2.4585 Y24.1872
G01 X2.1258 Y24.0682
G01 X1.8065 Y23.9171
G01 X1.5035 Y23.7355
G01 X1.2197 Y23.5251
G01 X0.9579 Y23.2878
G01 X0.7207 Y23.0260
G01 X0.5102 Y22.7423
G01 X0.3286 Y22.4393
G01 X0.1775 Y22.1199
G01 X0.0585 Y21.7873
G01 X-0.0273 Y21.4446
G01 X-0.0792 Y21.0951
G01 X-0.0965 Y20.7422
G01 X-0.0965 Y17.8914
G00 X-0.0965 Y17.8914
G01 F60.00
G01 Z-1.8000
G01 F120.00
G01 X-0.0965 Y20.7422
G01 X-0.0792 Y21.0951
G01 X-0.0273 Y21.4446
G01 X0.0585 Y21.7873
G01 X0.1775 Y22.1199
G01 X0.3286 Y22.4393
G01 X0.5102 Y22.7423
G01 X0.7207 Y23.0260
G01 X0.9579 Y23.2878
G01 X1.2197 Y23.5251
G01 X1.5035 Y23.7355
G01 X1.8065 Y23.9171
G01 X2.1258 Y24.0682
G01 X2.4585 Y24.1872
G01 X2.8012 Y24.2731
G01 X3.1506 Y24.3249
G01 X3.5035 Y24.3422
G01 X88.5427 Y24.3422
G01 X88.8956 Y24.3249
G01 X89.2451 Y24.2731
G01 X89.5878 Y24.1872
G01 X89.9204 Y24.0682
G01 X90.2398 Y23.9171
G01 X90.5428 Y23.7355
G01 X90.8266 Y23.5251
G01 X91.0883 Y23.2878
G01 X91.3256 Y23.0260
G01 X91.5360 Y22.7423
G01 X91.7177 Y22.4393
G01 X91.8687 Y22.1199
G01 X91.9877 Y21.7873
G01 X92.0736 Y21.4446
G01 X92.1254 Y21.0951
G01 X92.1427 Y20.7422
G01 X92.1427 Y17.8914
G00 Z2.0000
M05
G00 Z2.0000
G00 Z15.00


