(G-CODE GENERATED BY FLATCAM v8.994 - www.flatcam.org - Version Date: 2020/11/7)

(Name: 7ala.svg_cutout_cnc)
(Type: G-code from Geometry)
(Units: MM)

(Created on Friday, 10 November 2023 at 12:12)

(This preprocessor is the default preprocessor used by FlatCAM.)
(It is made to work with MACH3 compatible motion controllers.)

(TOOL DIAMETER: 2.0 mm)
(Feedrate_XY: 120.0 mm/min)
(Feedrate_Z: 60.0 mm/min)
(Feedrate rapids 1500.0 mm/min)

(Z_Cut: -1.8 mm)
(DepthPerCut: 0.6 mm <=>3 passes)
(Z_Move: 2.0 mm)
(Z Start: None mm)
(Z End: 15.0 mm)
(X,Y End: None mm)
(Steps per circle: 64)
(Preprocessor Geometry: default)

(X range:    1.3247 ...   65.6510  mm)
(Y range:    1.5460 ...   36.9144  mm)

(Spindle Speed: 0.0 RPM)
G21
G90
G94

G01 F120.00

M5
G00 Z15.0000
G00 X0.0000 Y0.0000
T1
M6    
(MSG, Change to Tool Dia = 2.0000)
M0
G00 Z15.0000

M03
G01 F120.00
G00 X33.9878 Y1.5460
G01 F60.00
G01 Z-0.6000
G01 F120.00
G01 X5.3247 Y1.5460
G01 X4.9327 Y1.5652
G01 X4.5444 Y1.6228
G01 X4.1636 Y1.7182
G01 X3.7940 Y1.8504
G01 X3.4392 Y2.0183
G01 X3.1025 Y2.2201
G01 X2.7872 Y2.4539
G01 X2.4963 Y2.7175
G01 X2.2327 Y3.0084
G01 X1.9989 Y3.3237
G01 X1.7971 Y3.6604
G01 X1.6292 Y4.0152
G01 X1.4970 Y4.3848
G01 X1.4016 Y4.7656
G01 X1.3440 Y5.1539
G01 X1.3247 Y5.5460
G01 X1.3247 Y32.9144
G01 X1.3440 Y33.3065
G01 X1.4016 Y33.6948
G01 X1.4970 Y34.0755
G01 X1.6292 Y34.4451
G01 X1.7971 Y34.8000
G01 X1.9989 Y35.1367
G01 X2.2327 Y35.4520
G01 X2.4963 Y35.7428
G01 X2.7872 Y36.0064
G01 X3.1025 Y36.2403
G01 X3.4392 Y36.4421
G01 X3.7940 Y36.6099
G01 X4.1636 Y36.7422
G01 X4.5444 Y36.8375
G01 X4.9327 Y36.8951
G01 X5.3247 Y36.9144
G01 X33.9878 Y36.9144
G00 X33.9878 Y36.9144
G01 F60.00
G01 Z-1.2000
G01 F120.00
G01 X5.3247 Y36.9144
G01 X4.9327 Y36.8951
G01 X4.5444 Y36.8375
G01 X4.1636 Y36.7422
G01 X3.7940 Y36.6099
G01 X3.4392 Y36.4421
G01 X3.1025 Y36.2403
G01 X2.7872 Y36.0064
G01 X2.4963 Y35.7428
G01 X2.2327 Y35.4520
G01 X1.9989 Y35.1367
G01 X1.7971 Y34.8000
G01 X1.6292 Y34.4451
G01 X1.4970 Y34.0755
G01 X1.4016 Y33.6948
G01 X1.3440 Y33.3065
G01 X1.3247 Y32.9144
G01 X1.3247 Y5.5460
G01 X1.3440 Y5.1539
G01 X1.4016 Y4.7656
G01 X1.4970 Y4.3848
G01 X1.6292 Y4.0152
G01 X1.7971 Y3.6604
G01 X1.9989 Y3.3237
G01 X2.2327 Y3.0084
G01 X2.4963 Y2.7175
G01 X2.7872 Y2.4539
G01 X3.1025 Y2.2201
G01 X3.4392 Y2.0183
G01 X3.7940 Y1.8504
G01 X4.1636 Y1.7182
G01 X4.5444 Y1.6228
G01 X4.9327 Y1.5652
G01 X5.3247 Y1.5460
G01 X33.9878 Y1.5460
G00 X33.9878 Y1.5460
G01 F60.00
G01 Z-1.8000
G01 F120.00
G01 X5.3247 Y1.5460
G01 X4.9327 Y1.5652
G01 X4.5444 Y1.6228
G01 X4.1636 Y1.7182
G01 X3.7940 Y1.8504
G01 X3.4392 Y2.0183
G01 X3.1025 Y2.2201
G01 X2.7872 Y2.4539
G01 X2.4963 Y2.7175
G01 X2.2327 Y3.0084
G01 X1.9989 Y3.3237
G01 X1.7971 Y3.6604
G01 X1.6292 Y4.0152
G01 X1.4970 Y4.3848
G01 X1.4016 Y4.7656
G01 X1.3440 Y5.1539
G01 X1.3247 Y5.5460
G01 X1.3247 Y32.9144
G01 X1.3440 Y33.3065
G01 X1.4016 Y33.6948
G01 X1.4970 Y34.0755
G01 X1.6292 Y34.4451
G01 X1.7971 Y34.8000
G01 X1.9989 Y35.1367
G01 X2.2327 Y35.4520
G01 X2.4963 Y35.7428
G01 X2.7872 Y36.0064
G01 X3.1025 Y36.2403
G01 X3.4392 Y36.4421
G01 X3.7940 Y36.6099
G01 X4.1636 Y36.7422
G01 X4.5444 Y36.8375
G01 X4.9327 Y36.8951
G01 X5.3247 Y36.9144
G01 X33.9878 Y36.9144
G00 Z2.0000
G00 X38.9878 Y36.9144
G01 F60.00
G01 Z-0.6000
G01 F120.00
G01 X61.6510 Y36.9144
G01 X62.0430 Y36.8951
G01 X62.4313 Y36.8375
G01 X62.8121 Y36.7422
G01 X63.1817 Y36.6099
G01 X63.5365 Y36.4421
G01 X63.8732 Y36.2403
G01 X64.1885 Y36.0064
G01 X64.4794 Y35.7428
G01 X64.7430 Y35.4520
G01 X64.9768 Y35.1367
G01 X65.1786 Y34.8000
G01 X65.3465 Y34.4451
G01 X65.4787 Y34.0755
G01 X65.5741 Y33.6948
G01 X65.6317 Y33.3065
G01 X65.6510 Y32.9144
G01 X65.6510 Y5.5460
G01 X65.6317 Y5.1539
G01 X65.5741 Y4.7656
G01 X65.4787 Y4.3848
G01 X65.3465 Y4.0152
G01 X65.1786 Y3.6604
G01 X64.9768 Y3.3237
G01 X64.7430 Y3.0084
G01 X64.4794 Y2.7175
G01 X64.1885 Y2.4539
G01 X63.8732 Y2.2201
G01 X63.5365 Y2.0183
G01 X63.1817 Y1.8504
G01 X62.8121 Y1.7182
G01 X62.4313 Y1.6228
G01 X62.0430 Y1.5652
G01 X61.6510 Y1.5460
G01 X38.9878 Y1.5460
G00 X38.9878 Y1.5460
G01 F60.00
G01 Z-1.2000
G01 F120.00
G01 X61.6510 Y1.5460
G01 X62.0430 Y1.5652
G01 X62.4313 Y1.6228
G01 X62.8121 Y1.7182
G01 X63.1817 Y1.8504
G01 X63.5365 Y2.0183
G01 X63.8732 Y2.2201
G01 X64.1885 Y2.4539
G01 X64.4794 Y2.7175
G01 X64.7430 Y3.0084
G01 X64.9768 Y3.3237
G01 X65.1786 Y3.6604
G01 X65.3465 Y4.0152
G01 X65.4787 Y4.3848
G01 X65.5741 Y4.7656
G01 X65.6317 Y5.1539
G01 X65.6510 Y5.5460
G01 X65.6510 Y32.9144
G01 X65.6317 Y33.3065
G01 X65.5741 Y33.6948
G01 X65.4787 Y34.0755
G01 X65.3465 Y34.4451
G01 X65.1786 Y34.8000
G01 X64.9768 Y35.1367
G01 X64.7430 Y35.4520
G01 X64.4794 Y35.7428
G01 X64.1885 Y36.0064
G01 X63.8732 Y36.2403
G01 X63.5365 Y36.4421
G01 X63.1817 Y36.6099
G01 X62.8121 Y36.7422
G01 X62.4313 Y36.8375
G01 X62.0430 Y36.8951
G01 X61.6510 Y36.9144
G01 X38.9878 Y36.9144
G00 X38.9878 Y36.9144
G01 F60.00
G01 Z-1.8000
G01 F120.00
G01 X61.6510 Y36.9144
G01 X62.0430 Y36.8951
G01 X62.4313 Y36.8375
G01 X62.8121 Y36.7422
G01 X63.1817 Y36.6099
G01 X63.5365 Y36.4421
G01 X63.8732 Y36.2403
G01 X64.1885 Y36.0064
G01 X64.4794 Y35.7428
G01 X64.7430 Y35.4520
G01 X64.9768 Y35.1367
G01 X65.1786 Y34.8000
G01 X65.3465 Y34.4451
G01 X65.4787 Y34.0755
G01 X65.5741 Y33.6948
G01 X65.6317 Y33.3065
G01 X65.6510 Y32.9144
G01 X65.6510 Y5.5460
G01 X65.6317 Y5.1539
G01 X65.5741 Y4.7656
G01 X65.4787 Y4.3848
G01 X65.3465 Y4.0152
G01 X65.1786 Y3.6604
G01 X64.9768 Y3.3237
G01 X64.7430 Y3.0084
G01 X64.4794 Y2.7175
G01 X64.1885 Y2.4539
G01 X63.8732 Y2.2201
G01 X63.5365 Y2.0183
G01 X63.1817 Y1.8504
G01 X62.8121 Y1.7182
G01 X62.4313 Y1.6228
G01 X62.0430 Y1.5652
G01 X61.6510 Y1.5460
G01 X38.9878 Y1.5460
G00 Z2.0000
M05
G00 Z2.0000
G00 Z15.00


