(G-CODE GENERATED BY FLATCAM v8.994 - www.flatcam.org - Version Date: 2020/11/7)

(Name: 7ala.svg_iso_combined_cnc)
(Type: G-code from Geometry)
(Units: MM)

(Created on Tuesday, 07 November 2023 at 23:14)

(This preprocessor is the default preprocessor used by FlatCAM.)
(It is made to work with MACH3 compatible motion controllers.)

(TOOL DIAMETER: 0.2 mm)
(Feedrate_XY: 120.0 mm/min)
(Feedrate_Z: 60.0 mm/min)
(Feedrate rapids 1500.0 mm/min)

(Z_Cut: -0.1866 mm)
(Z_Move: 2.0 mm)
(Z Start: None mm)
(Z End: 15.0 mm)
(X,Y End: None mm)
(Steps per circle: 64)
(Preprocessor Geometry: default)

(X range:    5.0447 ...   61.9310  mm)
(Y range:    5.2660 ...   33.1944  mm)

(Spindle Speed: 0.0 RPM)
G21
G90
G94

G01 F120.00

M5
G00 Z15.0000
G00 X0.0000 Y0.0000
T1
M6    
(MSG, Change to Tool Dia = 0.2000)
M0
G00 Z15.0000

M03
G01 F120.00
G00 X21.7691 Y10.3222
G01 F60.00
G01 Z-0.1866
G01 F120.00
G01 X21.7698 Y10.2237
G01 X21.7700 Y10.0595
G01 X21.7707 Y9.9997
G01 X21.7734 Y9.8999
G01 X21.7782 Y9.8000
G01 X21.7819 Y9.7411
G01 X21.7864 Y9.6811
G01 X21.7916 Y9.6211
G01 X21.7975 Y9.5611
G01 X21.8041 Y9.5011
G01 X21.8114 Y9.4412
G01 X21.8194 Y9.3813
G01 X21.8280 Y9.3215
G01 X21.8372 Y9.2618
G01 X21.8471 Y9.2022
G01 X21.8577 Y9.1427
G01 X21.8691 Y9.0824
G01 X21.8809 Y9.0231
G01 X21.8933 Y8.9640
G01 X21.9064 Y8.9051
G01 X21.9245 Y8.8278
G01 X21.9389 Y8.7693
G01 X21.9539 Y8.7110
G01 X21.9695 Y8.6530
G01 X21.9860 Y8.5943
G01 X22.0027 Y8.5367
G01 X22.0257 Y8.4613
G01 X22.0437 Y8.4044
G01 X22.0626 Y8.3469
G01 X22.0817 Y8.2906
G01 X22.1078 Y8.2170
G01 X22.1281 Y8.1614
G01 X22.1493 Y8.1054
G01 X22.1707 Y8.0506
G01 X22.1997 Y7.9791
G01 X22.2226 Y7.9243
G01 X22.2457 Y7.8709
G01 X22.2768 Y7.8012
G01 X22.3010 Y7.7489
G01 X22.3261 Y7.6960
G01 X22.3512 Y7.6445
G01 X22.3850 Y7.5776
G01 X22.4112 Y7.5274
G01 X22.4378 Y7.4776
G01 X22.4649 Y7.4284
G01 X22.4930 Y7.3788
G01 X22.5211 Y7.3307
G01 X22.5585 Y7.2684
G01 X22.5875 Y7.2217
G01 X22.6176 Y7.1746
G01 X22.6474 Y7.1291
G01 X22.6777 Y7.0843
G01 X22.7084 Y7.0401
G01 X22.7493 Y6.9832
G01 X22.7809 Y6.9407
G01 X22.8130 Y6.8988
G01 X22.8455 Y6.8576
G01 X22.8793 Y6.8161
G01 X22.9126 Y6.7764
G01 X22.9463 Y6.7374
G01 X22.9804 Y6.6993
G01 X23.0139 Y6.6631
G01 X23.0382 Y6.6375
G01 X23.0723 Y6.6026
G01 X23.0972 Y6.5779
G01 X23.1318 Y6.5445
G01 X23.1573 Y6.5208
G01 X23.1925 Y6.4888
G01 X23.2185 Y6.4661
G01 X23.2543 Y6.4357
G01 X23.2808 Y6.4139
G01 X23.3173 Y6.3851
G01 X23.3444 Y6.3643
G01 X23.3814 Y6.3371
G01 X23.4091 Y6.3175
G01 X23.4467 Y6.2920
G01 X23.4747 Y6.2738
G01 X23.4999 Y6.2579
G01 X23.5368 Y6.2357
G01 X23.5653 Y6.2194
G01 X23.6043 Y6.1981
G01 X23.6338 Y6.1825
G01 X23.6748 Y6.1619
G01 X23.7054 Y6.1471
G01 X23.7484 Y6.1271
G01 X23.7800 Y6.1129
G01 X23.8248 Y6.0935
G01 X23.8574 Y6.0799
G01 X23.9052 Y6.0607
G01 X23.9869 Y6.0295
G01 X24.0361 Y6.0118
G01 X24.0872 Y5.9940
G01 X24.1392 Y5.9766
G01 X24.1920 Y5.9597
G01 X24.2455 Y5.9431
G01 X24.3007 Y5.9267
G01 X24.3556 Y5.9110
G01 X24.4111 Y5.8957
G01 X24.4673 Y5.8809
G01 X24.5422 Y5.8619
G01 X24.5995 Y5.8481
G01 X24.6574 Y5.8347
G01 X24.7157 Y5.8217
G01 X24.7752 Y5.8091
G01 X24.8531 Y5.7933
G01 X24.9125 Y5.7820
G01 X24.9721 Y5.7711
G01 X25.0320 Y5.7607
G01 X25.0928 Y5.7507
G01 X25.1529 Y5.7413
G01 X25.2323 Y5.7298
G01 X25.2925 Y5.7217
G01 X25.3527 Y5.7141
G01 X25.4129 Y5.7071
G01 X25.4729 Y5.7007
G01 X25.5327 Y5.6948
G01 X25.5933 Y5.6895
G01 X25.6528 Y5.6848
G01 X25.7120 Y5.6808
G01 X25.7709 Y5.6773
G01 X25.8294 Y5.6746
G01 X25.8876 Y5.6724
G01 X25.9454 Y5.6709
G01 X26.0015 Y5.6702
G01 X26.0840 Y5.6701
G01 X26.1710 Y5.6708
G01 X26.2562 Y5.6722
G01 X26.3189 Y5.6738
G01 X26.4010 Y5.6766
G01 X26.4623 Y5.6793
G01 X26.5408 Y5.6836
G01 X26.5992 Y5.6874
G01 X26.6579 Y5.6918
G01 X26.7326 Y5.6984
G01 X26.7896 Y5.7042
G01 X26.8449 Y5.7104
G01 X26.9164 Y5.7196
G01 X26.9701 Y5.7272
G01 X27.0232 Y5.7356
G01 X27.0758 Y5.7446
G01 X27.1292 Y5.7545
G01 X27.1807 Y5.7649
G01 X27.2472 Y5.7796
G01 X27.2976 Y5.7916
G01 X27.3490 Y5.8048
G01 X27.3986 Y5.8185
G01 X27.4477 Y5.8329
G01 X27.4965 Y5.8480
G01 X27.5594 Y5.8690
G01 X27.6073 Y5.8861
G01 X27.6549 Y5.9039
G01 X27.7022 Y5.9226
G01 X27.7493 Y5.9422
G01 X27.7960 Y5.9626
G01 X27.8425 Y5.9838
G01 X27.8902 Y6.0066
G01 X27.9210 Y6.0218
G01 X27.9656 Y6.0446
G01 X27.9974 Y6.0615
G01 X28.0418 Y6.0857
G01 X28.0735 Y6.1036
G01 X28.1178 Y6.1293
G01 X28.1493 Y6.1481
G01 X28.1936 Y6.1752
G01 X28.2249 Y6.1950
G01 X28.2693 Y6.2237
G01 X28.3451 Y6.2746
G01 X28.4211 Y6.3280
G01 X28.4984 Y6.3846
G01 X28.5599 Y6.4312
G01 X28.6367 Y6.4913
G01 X28.7000 Y6.5422
G01 X28.7787 Y6.6072
G01 X28.8759 Y6.6898
G01 X28.9249 Y6.7325
G01 X29.0190 Y6.8152
G01 X29.1340 Y6.9152
G01 X29.2433 Y7.0095
G01 X29.3470 Y7.0980
G01 X29.4452 Y7.1808
G01 X29.5380 Y7.2577
G01 X29.6254 Y7.3289
G01 X29.6875 Y7.3785
G01 X29.7656 Y7.4396
G01 X29.8386 Y7.4949
G01 X29.8898 Y7.5325
G01 X29.9534 Y7.5774
G01 X30.0116 Y7.6165
G01 X30.0386 Y7.6338
G01 X30.0642 Y7.6496
G01 X30.0883 Y7.6639
G01 X30.1109 Y7.6766
G01 X30.1318 Y7.6879
G01 X30.1548 Y7.6995
G01 X30.1580 Y7.6757
G01 X30.1617 Y7.6422
G01 X30.1647 Y7.6049
G01 X30.1670 Y7.5639
G01 X30.1682 Y7.5345
G01 X30.1694 Y7.4876
G01 X30.1701 Y7.3990
G01 X30.1708 Y7.3596
G01 X30.1731 Y7.3038
G01 X30.1757 Y7.2627
G01 X30.1804 Y7.2082
G01 X30.1868 Y7.1519
G01 X30.1948 Y7.0963
G01 X30.2044 Y7.0416
G01 X30.2161 Y6.9848
G01 X30.2238 Y6.9521
G01 X30.2327 Y6.9170
G01 X30.2483 Y6.8622
G01 X30.2581 Y6.8309
G01 X30.2694 Y6.7972
G01 X30.2888 Y6.7444
G01 X30.3007 Y6.7146
G01 X30.3144 Y6.6823
G01 X30.3375 Y6.6318
G01 X30.3515 Y6.6035
G01 X30.3674 Y6.5728
G01 X30.3942 Y6.5248
G01 X30.4118 Y6.4952
G01 X30.4300 Y6.4662
G01 X30.4471 Y6.4403
G01 X30.4665 Y6.4122
G01 X30.4865 Y6.3847
G01 X30.5070 Y6.3576
G01 X30.5411 Y6.3155
G01 X30.5631 Y6.2898
G01 X30.5857 Y6.2647
G01 X30.6067 Y6.2424
G01 X30.6303 Y6.2182
G01 X30.6545 Y6.1947
G01 X30.6792 Y6.1716
G01 X30.7194 Y6.1362
G01 X30.7454 Y6.1146
G01 X30.7718 Y6.0936
G01 X30.7986 Y6.0732
G01 X30.8259 Y6.0533
G01 X30.8537 Y6.0340
G01 X30.8818 Y6.0153
G01 X30.9080 Y5.9987
G01 X30.9369 Y5.9811
G01 X30.9663 Y5.9640
G01 X30.9961 Y5.9475
G01 X31.0262 Y5.9315
G01 X31.0568 Y5.9161
G01 X31.0876 Y5.9013
G01 X31.1189 Y5.8871
G01 X31.1505 Y5.8734
G01 X31.1824 Y5.8603
G01 X31.2146 Y5.8477
G01 X31.2472 Y5.8357
G01 X31.2801 Y5.8242
G01 X31.3133 Y5.8133
G01 X31.3468 Y5.8029
G01 X31.3829 Y5.7924
G01 X31.4169 Y5.7832
G01 X31.4513 Y5.7745
G01 X31.4859 Y5.7664
G01 X31.5208 Y5.7587
G01 X31.5559 Y5.7516
G01 X31.5913 Y5.7451
G01 X31.6270 Y5.7390
G01 X31.6789 Y5.7313
G01 X31.7152 Y5.7265
G01 X31.7517 Y5.7223
G01 X31.7885 Y5.7186
G01 X31.8255 Y5.7154
G01 X31.8627 Y5.7127
G01 X31.9002 Y5.7105
G01 X31.9378 Y5.7089
G01 X31.9776 Y5.7077
G01 X32.0157 Y5.7071
G01 X32.0540 Y5.7070
G01 X32.0924 Y5.7074
G01 X32.1487 Y5.7089
G01 X32.2268 Y5.7127
G01 X32.2662 Y5.7154
G01 X32.3074 Y5.7187
G01 X32.3653 Y5.7243
G01 X32.4053 Y5.7287
G01 X32.4857 Y5.7390
G01 X32.5682 Y5.7516
G01 X32.6498 Y5.7660
G01 X32.7099 Y5.7778
G01 X32.7512 Y5.7864
G01 X32.8340 Y5.8053
G01 X32.9174 Y5.8261
G01 X33.0013 Y5.8489
G01 X33.0869 Y5.8741
G01 X33.1716 Y5.9009
G01 X33.2341 Y5.9218
G01 X33.2767 Y5.9367
G01 X33.3622 Y5.9680
G01 X33.4493 Y6.0017
G01 X33.5354 Y6.0370
G01 X33.6218 Y6.0743
G01 X33.7083 Y6.1136
G01 X33.7939 Y6.1543
G01 X33.8591 Y6.1866
G01 X33.9244 Y6.2200
G01 X33.9897 Y6.2546
G01 X34.0550 Y6.2902
G01 X34.1204 Y6.3271
G01 X34.1858 Y6.3650
G01 X34.2512 Y6.4041
G01 X34.3166 Y6.4444
G01 X34.3820 Y6.4858
G01 X34.4473 Y6.5283
G01 X34.4961 Y6.5610
G01 X34.5439 Y6.5952
G01 X34.5937 Y6.6323
G01 X34.6442 Y6.6715
G01 X34.6964 Y6.7132
G01 X34.7587 Y6.7647
G01 X34.8127 Y6.8107
G01 X34.8775 Y6.8674
G01 X34.9444 Y6.9276
G01 X35.0117 Y6.9896
G01 X35.0806 Y7.0545
G01 X35.1505 Y7.1219
G01 X35.2217 Y7.1919
G01 X35.2933 Y7.2635
G01 X35.3663 Y7.3379
G01 X35.4398 Y7.4140
G01 X35.5262 Y7.5051
G01 X35.6011 Y7.5854
G01 X35.6768 Y7.6677
G01 X35.7653 Y7.7654
G01 X35.8419 Y7.8512
G01 X35.9185 Y7.9382
G01 X36.0080 Y8.0412
G01 X36.0850 Y8.1311
G01 X36.1619 Y8.2221
G01 X36.2390 Y8.3144
G01 X36.3158 Y8.4075
G01 X36.3923 Y8.5014
G01 X36.4683 Y8.5958
G01 X36.5442 Y8.6914
G01 X36.6194 Y8.7873
G01 X36.6941 Y8.8836
G01 X36.7679 Y8.9801
G01 X36.8413 Y9.0774
G01 X36.9135 Y9.1743
G01 X36.9849 Y9.2716
G01 X37.0437 Y9.3526
G01 X37.1361 Y9.4821
G01 X37.2152 Y9.5951
G01 X37.2927 Y9.7079
G01 X37.3679 Y9.8195
G01 X38.4468 Y11.4624
G01 X38.5707 Y9.4297
G01 X38.5832 Y9.2614
G01 X38.5959 Y9.0979
G01 X38.6088 Y8.9395
G01 X38.6194 Y8.8163
G01 X38.6329 Y8.6666
G01 X38.6441 Y8.5503
G01 X38.6555 Y8.4366
G01 X38.6672 Y8.3262
G01 X38.6823 Y8.1926
G01 X38.6949 Y8.0882
G01 X38.7110 Y7.9627
G01 X38.7246 Y7.8643
G01 X38.7420 Y7.7464
G01 X38.7566 Y7.6539
G01 X38.7754 Y7.5434
G01 X38.7913 Y7.4564
G01 X38.8118 Y7.3530
G01 X38.8290 Y7.2722
G01 X38.8471 Y7.1927
G01 X38.8658 Y7.1164
G01 X38.8899 Y7.0254
G01 X38.9103 Y6.9540
G01 X38.9321 Y6.8834
G01 X38.9544 Y6.8161
G01 X38.9712 Y6.7685
G01 X38.9831 Y6.7363
G01 X39.0076 Y6.6735
G01 X39.0333 Y6.6126
G01 X39.0602 Y6.5535
G01 X39.0751 Y6.5227
G01 X39.0894 Y6.4942
G01 X39.1040 Y6.4662
G01 X39.1189 Y6.4387
G01 X39.1342 Y6.4116
G01 X39.1499 Y6.3850
G01 X39.1659 Y6.3588
G01 X39.1823 Y6.3331
G01 X39.1990 Y6.3078
G01 X39.2162 Y6.2830
G01 X39.2337 Y6.2587
G01 X39.2516 Y6.2348
G01 X39.2699 Y6.2114
G01 X39.2886 Y6.1885
G01 X39.3077 Y6.1661
G01 X39.3272 Y6.1441
G01 X39.3471 Y6.1227
G01 X39.3673 Y6.1017
G01 X39.3880 Y6.0813
G01 X39.4091 Y6.0614
G01 X39.4305 Y6.0420
G01 X39.4524 Y6.0231
G01 X39.4746 Y6.0048
G01 X39.4971 Y5.9870
G01 X39.5200 Y5.9698
G01 X39.5433 Y5.9530
G01 X39.5669 Y5.9369
G01 X39.5909 Y5.9213
G01 X39.6151 Y5.9062
G01 X39.6397 Y5.8917
G01 X39.6645 Y5.8777
G01 X39.6897 Y5.8643
G01 X39.7151 Y5.8514
G01 X39.7408 Y5.8391
G01 X39.7668 Y5.8272
G01 X39.7930 Y5.8159
G01 X39.8195 Y5.8051
G01 X39.8462 Y5.7948
G01 X39.8732 Y5.7850
G01 X39.9116 Y5.7720
G01 X39.9392 Y5.7633
G01 X39.9670 Y5.7551
G01 X39.9950 Y5.7474
G01 X40.0254 Y5.7395
G01 X40.0538 Y5.7327
G01 X40.0948 Y5.7236
G01 X40.1550 Y5.7120
G01 X40.1844 Y5.7069
G01 X40.2271 Y5.7003
G01 X40.2891 Y5.6921
G01 X40.3195 Y5.6886
G01 X40.3642 Y5.6842
G01 X40.3967 Y5.6814
G01 X40.4438 Y5.6780
G01 X40.5224 Y5.6737
G01 X40.6052 Y5.6711
G01 X40.6550 Y5.6703
G01 X40.7058 Y5.6700
G01 X40.7413 Y5.6703
G01 X40.7786 Y5.6712
G01 X40.8424 Y5.6742
G01 X40.8785 Y5.6767
G01 X40.9162 Y5.6799
G01 X40.9808 Y5.6867
G01 X41.0175 Y5.6913
G01 X41.0557 Y5.6967
G01 X41.1210 Y5.7073
G01 X41.1595 Y5.7143
G01 X41.1981 Y5.7219
G01 X41.2368 Y5.7301
G01 X41.2757 Y5.7389
G01 X41.3147 Y5.7483
G01 X41.3538 Y5.7583
G01 X41.3930 Y5.7689
G01 X41.4324 Y5.7800
G01 X41.4719 Y5.7917
G01 X41.5115 Y5.8040
G01 X41.5512 Y5.8169
G01 X41.5910 Y5.8303
G01 X41.6711 Y5.8590
G01 X41.7517 Y5.8899
G01 X41.8328 Y5.9231
G01 X41.9145 Y5.9585
G01 X41.9967 Y5.9963
G01 X42.0794 Y6.0363
G01 X42.1627 Y6.0785
G01 X42.2465 Y6.1230
G01 X42.2886 Y6.1461
G01 X42.3444 Y6.1774
G01 X42.4295 Y6.2268
G01 X42.5152 Y6.2785
G01 X42.6016 Y6.3324
G01 X42.6891 Y6.3889
G01 X42.7766 Y6.4473
G01 X42.8648 Y6.5080
G01 X42.9536 Y6.5709
G01 X43.0575 Y6.6468
G01 X43.1331 Y6.7035
G01 X43.2239 Y6.7732
G01 X43.3153 Y6.8452
G01 X43.4070 Y6.9192
G01 X43.4846 Y6.9831
G01 X43.5779 Y7.0616
G01 X43.6719 Y7.1424
G01 X43.7663 Y7.2251
G01 X43.8617 Y7.3105
G01 X43.9420 Y7.3836
G01 X44.0387 Y7.4732
G01 X44.1358 Y7.5648
G01 X44.2339 Y7.6591
G01 X44.3164 Y7.7396
G01 X44.4156 Y7.8378
G01 X44.4992 Y7.9220
G01 X44.5828 Y8.0072
G01 X44.6503 Y8.0767
G01 X44.7864 Y8.2192
G01 X44.8717 Y8.3100
G01 X44.9406 Y8.3840
G01 X45.0794 Y8.5354
G01 X45.2018 Y8.6710
G01 X45.3243 Y8.8090
G01 X46.6200 Y10.2571
G01 X46.6201 Y9.8152
G01 X46.6212 Y9.7400
G01 X46.6231 Y9.6810
G01 X46.6257 Y9.6245
G01 X46.6281 Y9.5846
G01 X46.6320 Y9.5278
G01 X46.6369 Y9.4695
G01 X46.6407 Y9.4294
G01 X46.6469 Y9.3710
G01 X46.6537 Y9.3137
G01 X46.6614 Y9.2552
G01 X46.6699 Y9.1965
G01 X46.6791 Y9.1379
G01 X46.6890 Y9.0792
G01 X46.6997 Y9.0205
G01 X46.7111 Y8.9618
G01 X46.7231 Y8.9031
G01 X46.7359 Y8.8445
G01 X46.7496 Y8.7849
G01 X46.7637 Y8.7265
G01 X46.7785 Y8.6681
G01 X46.7939 Y8.6098
G01 X46.8100 Y8.5517
G01 X46.8267 Y8.4937
G01 X46.8496 Y8.4176
G01 X46.8678 Y8.3600
G01 X46.8868 Y8.3016
G01 X46.9062 Y8.2445
G01 X46.9326 Y8.1695
G01 X46.9532 Y8.1129
G01 X46.9748 Y8.0557
G01 X46.9967 Y7.9996
G01 X47.0262 Y7.9263
G01 X47.0493 Y7.8710
G01 X47.0733 Y7.8152
G01 X47.1052 Y7.7435
G01 X47.1305 Y7.6885
G01 X47.1639 Y7.6180
G01 X47.1899 Y7.5649
G01 X47.2168 Y7.5114
G01 X47.2438 Y7.4593
G01 X47.2800 Y7.3914
G01 X47.3081 Y7.3405
G01 X47.3371 Y7.2891
G01 X47.3753 Y7.2236
G01 X47.4054 Y7.1735
G01 X47.4354 Y7.1249
G01 X47.4755 Y7.0620
G01 X47.5065 Y7.0149
G01 X47.5379 Y6.9684
G01 X47.5697 Y6.9225
G01 X47.6027 Y6.8764
G01 X47.6353 Y6.8319
G01 X47.6787 Y6.7747
G01 X47.7123 Y6.7320
G01 X47.7463 Y6.6899
G01 X47.7807 Y6.6487
G01 X47.8154 Y6.6083
G01 X47.8506 Y6.5686
G01 X47.8753 Y6.5415
G01 X47.9100 Y6.5044
G01 X47.9595 Y6.4536
G01 X47.9951 Y6.4185
G01 X48.0198 Y6.3949
G01 X48.0710 Y6.3477
G01 X48.1076 Y6.3155
G01 X48.1331 Y6.2937
G01 X48.1862 Y6.2504
G01 X48.2237 Y6.2212
G01 X48.2500 Y6.2015
G01 X48.2765 Y6.1823
G01 X48.3032 Y6.1635
G01 X48.3300 Y6.1453
G01 X48.3571 Y6.1275
G01 X48.4000 Y6.1006
G01 X48.4276 Y6.0842
G01 X48.4532 Y6.0695
G01 X48.4811 Y6.0541
G01 X48.4938 Y6.0476
G01 X48.5205 Y6.0356
G01 X48.5456 Y6.0250
G01 X48.5691 Y6.0155
G01 X48.6036 Y6.0022
G01 X48.6671 Y5.9796
G01 X48.7355 Y5.9574
G01 X48.7774 Y5.9447
G01 X48.8206 Y5.9322
G01 X48.8792 Y5.9161
G01 X48.9263 Y5.9038
G01 X48.9889 Y5.8883
G01 X49.0386 Y5.8765
G01 X49.1049 Y5.8616
G01 X49.1571 Y5.8504
G01 X49.2267 Y5.8361
G01 X49.2813 Y5.8255
G01 X49.3539 Y5.8119
G01 X49.4105 Y5.8019
G01 X49.4858 Y5.7892
G01 X49.5443 Y5.7798
G01 X49.6219 Y5.7679
G01 X49.6813 Y5.7593
G01 X49.7420 Y5.7509
G01 X49.8223 Y5.7405
G01 X49.9459 Y5.7258
G01 X50.0281 Y5.7169
G01 X50.0906 Y5.7107
G01 X50.2171 Y5.6993
G01 X50.3007 Y5.6927
G01 X50.3641 Y5.6883
G01 X50.4909 Y5.6808
G01 X50.6183 Y5.6751
G01 X50.6814 Y5.6730
G01 X50.7436 Y5.6715
G01 X50.8072 Y5.6705
G01 X50.8896 Y5.6700
G01 X50.9783 Y5.6703
G01 X51.0645 Y5.6714
G01 X51.1488 Y5.6732
G01 X51.2306 Y5.6758
G01 X51.2922 Y5.6784
G01 X51.3711 Y5.6824
G01 X51.4492 Y5.6874
G01 X51.5079 Y5.6918
G01 X51.5826 Y5.6984
G01 X51.6385 Y5.7041
G01 X51.6949 Y5.7104
G01 X51.7664 Y5.7196
G01 X51.8201 Y5.7272
G01 X51.8732 Y5.7356
G01 X51.9271 Y5.7448
G01 X51.9950 Y5.7576
G01 X52.0478 Y5.7685
G01 X52.0987 Y5.7799
G01 X52.1643 Y5.7958
G01 X52.2141 Y5.8089
G01 X52.2635 Y5.8227
G01 X52.3125 Y5.8374
G01 X52.3626 Y5.8533
G01 X52.4109 Y5.8695
G01 X52.4588 Y5.8866
G01 X52.5064 Y5.9045
G01 X52.5537 Y5.9232
G01 X52.6149 Y5.9489
G01 X52.6615 Y5.9695
G01 X52.7094 Y5.9917
G01 X52.7542 Y6.0134
G01 X52.7863 Y6.0295
G01 X52.8308 Y6.0526
G01 X52.8627 Y6.0697
G01 X52.9071 Y6.0942
G01 X52.9387 Y6.1123
G01 X52.9830 Y6.1383
G01 X53.0284 Y6.1659
G01 X53.0598 Y6.1854
G01 X53.1041 Y6.2138
G01 X53.1809 Y6.2649
G01 X53.2568 Y6.3178
G01 X53.3016 Y6.3501
G01 X53.3475 Y6.3840
G01 X53.4099 Y6.4312
G01 X53.4867 Y6.4913
G01 X53.5500 Y6.5422
G01 X53.6287 Y6.6072
G01 X53.7259 Y6.6898
G01 X53.7749 Y6.7325
G01 X53.8690 Y6.8152
G01 X53.9840 Y6.9152
G01 X54.0933 Y7.0095
G01 X54.1970 Y7.0980
G01 X54.2952 Y7.1808
G01 X54.3880 Y7.2577
G01 X54.4754 Y7.3289
G01 X54.5375 Y7.3785
G01 X54.6156 Y7.4396
G01 X54.6886 Y7.4949
G01 X54.7398 Y7.5325
G01 X54.8034 Y7.5774
G01 X54.8616 Y7.6165
G01 X54.8886 Y7.6338
G01 X54.9142 Y7.6496
G01 X54.9383 Y7.6639
G01 X54.9609 Y7.6766
G01 X54.9818 Y7.6879
G01 X55.0048 Y7.6995
G01 X55.0080 Y7.6757
G01 X55.0117 Y7.6422
G01 X55.0147 Y7.6049
G01 X55.0170 Y7.5639
G01 X55.0182 Y7.5345
G01 X55.0194 Y7.4876
G01 X55.0202 Y7.3826
G01 X55.0210 Y7.3446
G01 X55.0231 Y7.2884
G01 X55.0252 Y7.2493
G01 X55.0290 Y7.1963
G01 X55.0341 Y7.1422
G01 X55.0404 Y7.0888
G01 X55.0477 Y7.0363
G01 X55.0533 Y7.0017
G01 X55.0594 Y6.9674
G01 X55.0699 Y6.9144
G01 X55.0767 Y6.8834
G01 X55.0846 Y6.8504
G01 X55.0979 Y6.7992
G01 X55.1064 Y6.7695
G01 X55.1160 Y6.7378
G01 X55.1322 Y6.6885
G01 X55.1423 Y6.6601
G01 X55.1537 Y6.6297
G01 X55.1728 Y6.5824
G01 X55.1844 Y6.5554
G01 X55.1976 Y6.5264
G01 X55.2113 Y6.4978
G01 X55.2255 Y6.4695
