(G-CODE GENERATED BY FLATCAM v8.994 - www.flatcam.org - Version Date: 2020/11/7)

(Name: 7ala7.svg_iso_combined_cnc)
(Type: G-code from Geometry)
(Units: MM)

(Created on Wednesday, 08 November 2023 at 21:57)

(This preprocessor is the default preprocessor used by FlatCAM.)
(It is made to work with MACH3 compatible motion controllers.)

(TOOL DIAMETER: 0.45 mm)
(Feedrate_XY: 120.0 mm/min)
(Feedrate_Z: 60.0 mm/min)
(Feedrate rapids 1500.0 mm/min)

(Z_Cut: -0.6531 mm)
(Z_Move: 2.0 mm)
(Z Start: None mm)
(Z End: 15.0 mm)
(X,Y End: None mm)
(Steps per circle: 64)
(Preprocessor Geometry: default)

(X range:    5.2247 ...   19.6727  mm)
(Y range:    5.4460 ...   28.3516  mm)

(Spindle Speed: 0.0 RPM)
G21
G90
G94

G01 F120.00

M5
G00 Z15.0000
G00 X0.0000 Y0.0000
T1
M6    
(MSG, Change to Tool Dia = 0.4500)
M0
G00 Z15.0000

M03
G01 F120.00
G00 X5.6766 Y25.0430
G01 F60.00
G01 Z-0.6531
G01 F120.00
G01 X5.6313 Y24.7992
G01 X5.5834 Y24.5324
G01 X5.5425 Y24.2970
G01 X5.4996 Y24.0415
G01 X5.4635 Y23.8177
G01 X5.4260 Y23.5767
G01 X5.3915 Y23.3444
G01 X5.3601 Y23.1218
G01 X5.3317 Y22.9097
G01 X5.3065 Y22.7088
G01 X5.2845 Y22.5199
G01 X5.2747 Y22.4303
G01 X5.2641 Y22.3273
G01 X5.2562 Y22.2452
G01 X5.2492 Y22.1664
G01 X5.2430 Y22.0914
G01 X5.2377 Y22.0201
G01 X5.2333 Y21.9526
G01 X5.2298 Y21.8890
G01 X5.2272 Y21.8294
G01 X5.2255 Y21.7737
G01 X5.2247 Y21.7030
G01 X5.2256 Y21.6479
G01 X5.2270 Y21.6153
G01 X5.2285 Y21.5920
G01 X5.2306 Y21.5692
G01 X5.2331 Y21.5483
G01 X5.2361 Y21.5284
G01 X5.2395 Y21.5111
G01 X5.2430 Y21.4969
G01 X5.2478 Y21.4810
G01 X5.2523 Y21.4688
G01 X5.2580 Y21.4563
G01 X5.2640 Y21.4455
G01 X5.2712 Y21.4346
G01 X5.2768 Y21.4274
G01 X5.2815 Y21.4221
G01 X5.2987 Y21.4053
G01 X5.3239 Y21.3827
G01 X5.3401 Y21.3694
G01 X5.3543 Y21.3586
G01 X5.3803 Y21.3403
G01 X5.3977 Y21.3294
G01 X5.4243 Y21.3145
G01 X5.4426 Y21.3055
G01 X5.4697 Y21.2939
G01 X5.4869 Y21.2876
G01 X5.5042 Y21.2821
G01 X5.5180 Y21.2783
G01 X5.5319 Y21.2750
G01 X5.5495 Y21.2715
G01 X5.5673 Y21.2688
G01 X5.5812 Y21.2672
G01 X5.5971 Y21.2660
G01 X5.6149 Y21.2654
G01 X5.6288 Y21.2655
G01 X5.6446 Y21.2661
G01 X5.6622 Y21.2676
G01 X5.6759 Y21.2693
G01 X5.6914 Y21.2718
G01 X5.7086 Y21.2752
G01 X5.7356 Y21.2821
G01 X5.7540 Y21.2878
G01 X5.7805 Y21.2975
G01 X5.7980 Y21.3050
G01 X5.8239 Y21.3175
G01 X5.8405 Y21.3265
G01 X5.8681 Y21.3430
G01 X5.8928 Y21.3597
G01 X5.9081 Y21.3709
G01 X5.9322 Y21.3900
G01 X5.9576 Y21.4121
G01 X5.9716 Y21.4253
G01 X5.9945 Y21.4481
G01 X6.0078 Y21.4622
G01 X6.0311 Y21.4886
G01 X6.0539 Y21.5163
G01 X6.0750 Y21.5439
G01 X6.0868 Y21.5603
G01 X6.1080 Y21.5912
G01 X6.1278 Y21.6220
G01 X6.1386 Y21.6398
G01 X6.1582 Y21.6737
G01 X6.1766 Y21.7076
G01 X6.1865 Y21.7267
G01 X6.2044 Y21.7635
G01 X6.2218 Y21.8013
G01 X6.2379 Y21.8391
G01 X6.2465 Y21.8600
G01 X6.2616 Y21.8993
G01 X6.2696 Y21.9210
G01 X6.2837 Y21.9618
G01 X6.2910 Y21.9842
G01 X6.3041 Y22.0265
G01 X6.3169 Y22.0717
G01 X6.3285 Y22.1158
G01 X6.3343 Y22.1397
G01 X6.3496 Y22.2084
G01 X6.3545 Y22.2331
G01 X6.3631 Y22.2800
G01 X6.3712 Y22.3297
G01 X6.3813 Y22.4030
G01 X6.3869 Y22.4535
G01 X6.3915 Y22.5045
G01 X6.3952 Y22.5562
G01 X6.3978 Y22.6084
G01 X6.3995 Y22.6612
G01 X6.4004 Y22.7654
G01 X6.4025 Y22.8479
G01 X6.4066 Y22.9285
G01 X6.4100 Y22.9759
G01 X6.4126 Y23.0071
G01 X6.4172 Y23.0534
G01 X6.4225 Y23.0990
G01 X6.4285 Y23.1439
G01 X6.4329 Y23.1735
G01 X6.4401 Y23.2172
G01 X6.4479 Y23.2603
G01 X6.4565 Y23.3027
G01 X6.4627 Y23.3306
G01 X6.4691 Y23.3582
G01 X6.4793 Y23.3991
G01 X6.4903 Y23.4392
G01 X6.5020 Y23.4788
G01 X6.5144 Y23.5176
G01 X6.5275 Y23.5558
G01 X6.5413 Y23.5934
G01 X6.5558 Y23.6303
G01 X6.5711 Y23.6665
G01 X6.5871 Y23.7021
G01 X6.6038 Y23.7371
G01 X6.6212 Y23.7715
G01 X6.6394 Y23.8052
G01 X6.6583 Y23.8384
G01 X6.6779 Y23.8709
G01 X6.6983 Y23.9028
G01 X6.7266 Y23.9445
G01 X6.7488 Y23.9750
G01 X6.7716 Y24.0050
G01 X6.7953 Y24.0344
G01 X6.8197 Y24.0632
G01 X6.8449 Y24.0914
G01 X6.8709 Y24.1191
G01 X6.8977 Y24.1463
G01 X6.9252 Y24.1728
G01 X6.9536 Y24.1989
G01 X6.9828 Y24.2244
G01 X7.0129 Y24.2493
G01 X7.0437 Y24.2737
G01 X7.0754 Y24.2976
G01 X7.1079 Y24.3209
G01 X7.1413 Y24.3437
G01 X7.1756 Y24.3660
G01 X7.2107 Y24.3877
G01 X7.2467 Y24.4089
G01 X7.2836 Y24.4296
G01 X7.3213 Y24.4497
G01 X7.3600 Y24.4693
G01 X7.3995 Y24.4883
G01 X7.4399 Y24.5069
G01 X7.4813 Y24.5248
G01 X7.5236 Y24.5423
G01 X7.5667 Y24.5592
G01 X7.6108 Y24.5756
G01 X7.6559 Y24.5914
G01 X7.7018 Y24.6067
G01 X7.7487 Y24.6214
G01 X7.7965 Y24.6356
G01 X7.8453 Y24.6492
G01 X7.8950 Y24.6623
G01 X7.9457 Y24.6749
G01 X7.9800 Y24.6830
G01 X8.0322 Y24.6946
G01 X8.0854 Y24.7057
G01 X8.1761 Y24.7230
G01 X8.2319 Y24.7326
G01 X8.2886 Y24.7417
G01 X8.3852 Y24.7556
G01 X8.4445 Y24.7632
G01 X8.5048 Y24.7702
G01 X8.6074 Y24.7808
G01 X8.7127 Y24.7898
G01 X8.7772 Y24.7945
G01 X8.8426 Y24.7986
G01 X8.9540 Y24.8043
G01 X9.0221 Y24.8069
G01 X9.0912 Y24.8090
G01 X9.2086 Y24.8114
G01 X9.2803 Y24.8120
G01 X9.3531 Y24.8121
G01 X9.4766 Y24.8111
G01 X9.5520 Y24.8098
G01 X9.6285 Y24.8079
G01 X9.7581 Y24.8035
G01 X9.8906 Y24.7977
G01 X9.9987 Y24.7919
G01 X10.1392 Y24.7835
G01 X10.4025 Y24.7696
G01 X10.6999 Y24.7549
G01 X11.0133 Y24.7403
G01 X11.3207 Y24.7268
G01 X11.6366 Y24.7135
G01 X11.9770 Y24.6999
G01 X12.3202 Y24.6866
G01 X12.7388 Y24.6711
G01 X13.1689 Y24.6559
G01 X13.6021 Y24.6411
G01 X14.0281 Y24.6273
G01 X14.5921 Y24.6100
G01 X14.7341 Y24.6095
G01 X14.8351 Y24.6085
G01 X14.9653 Y24.6064
G01 X15.0902 Y24.6033
G01 X15.1806 Y24.6004
G01 X15.2679 Y24.5970
G01 X15.3524 Y24.5930
G01 X15.4604 Y24.5870
G01 X15.5379 Y24.5819
G01 X15.6366 Y24.5743
G01 X15.7300 Y24.5659
G01 X15.8180 Y24.5566
G01 X15.9006 Y24.5464
G01 X15.9776 Y24.5355
G01 X16.0492 Y24.5238
G01 X16.1151 Y24.5114
G01 X16.1754 Y24.4982
G01 X16.2298 Y24.4845
G01 X16.2548 Y24.4774
G01 X16.2783 Y24.4703
G01 X16.3002 Y24.4630
G01 X16.3303 Y24.4520
G01 X16.3483 Y24.4446
G01 X16.3647 Y24.4373
G01 X16.3795 Y24.4300
G01 X16.3985 Y24.4195
G01 X16.4136 Y24.4096
G01 X16.4249 Y24.4008
G01 X16.4324 Y24.3935
G01 X16.4356 Y24.3898
G01 X16.4381 Y24.3860
G01 X16.4358 Y24.3797
G01 X16.4306 Y24.3706
G01 X16.4160 Y24.3490
G01 X16.3976 Y24.3233
G01 X16.3463 Y24.2551
G01 X16.2773 Y24.1664
G01 X16.1919 Y24.0590
G01 X16.0914 Y23.9342
G01 X15.9769 Y23.7934
G01 X15.8495 Y23.6378
G01 X15.6615 Y23.4096
G01 X15.4415 Y23.1442
G01 X15.1892 Y22.8412
G01 X14.9206 Y22.5199
G01 X14.5594 Y22.0892
G01 X14.1688 Y21.6247
G01 X13.9791 Y21.4023
G01 X13.8089 Y21.2010
G01 X13.6579 Y21.0208
G01 X13.5253 Y20.8614
G01 X13.3943 Y20.7027
G01 X13.2810 Y20.5645
G01 X13.1689 Y20.4267
G01 X13.0581 Y20.2896
G01 X12.9484 Y20.1530
G01 X12.8399 Y20.0169
G01 X12.7327 Y19.8814
G01 X12.6266 Y19.7464
G01 X12.4772 Y19.5546
G01 X12.3449 Y19.3828
G01 X12.2001 Y19.1931
G01 X12.0720 Y19.0232
G01 X11.9320 Y18.8355
G01 X11.8080 Y18.6676
G01 X11.6861 Y18.5005
G01 X11.5661 Y18.3343
G01 X11.4352 Y18.1507
G01 X11.3195 Y17.9863
G01 X11.2057 Y17.8228
G01 X11.0939 Y17.6602
G01 X10.9721 Y17.4806
G01 X10.8645 Y17.3198
G01 X10.7589 Y17.1599
G01 X10.6553 Y17.0009
G01 X10.5314 Y16.8076
G01 X10.4213 Y16.6331
G01 X10.3030 Y16.4423
G01 X10.1981 Y16.2700
G01 X10.0855 Y16.0816
G01 X9.9856 Y15.9114
G01 X9.8787 Y15.7255
G01 X9.7840 Y15.5575
G01 X9.6826 Y15.3739
G01 X9.5931 Y15.2081
G01 X9.5405 Y15.1091
G01 X9.4974 Y15.0268
G01 X9.4129 Y14.8632
G01 X9.3635 Y14.7654
G01 X9.3229 Y14.6843
G01 X9.2436 Y14.5227
G01 X9.1971 Y14.4263
G01 X9.1591 Y14.3462
G01 X9.0849 Y14.1866
G01 X9.0416 Y14.0915
G01 X9.0061 Y14.0125
G01 X8.9370 Y13.8550
G01 X8.8967 Y13.7612
G01 X8.8638 Y13.6832
G01 X8.7998 Y13.5278
G01 X8.7626 Y13.4352
G01 X8.7323 Y13.3582
G01 X8.6734 Y13.2049
G01 X8.6393 Y13.1135
G01 X8.6115 Y13.0375
G01 X8.5577 Y12.8862
G01 X8.5266 Y12.7961
G01 X8.5014 Y12.7212
G01 X8.4767 Y12.6463
G01 X8.4527 Y12.5719
G01 X8.4247 Y12.4830
G01 X8.4020 Y12.4090
G01 X8.3799 Y12.3352
G01 X8.3584 Y12.2618
G01 X8.3335 Y12.1741
G01 X8.3133 Y12.1011
G01 X8.2938 Y12.0283
G01 X8.2748 Y11.9558
G01 X8.2530 Y11.8693
G01 X8.2354 Y11.7974
G01 X8.2184 Y11.7255
G01 X8.2020 Y11.6541
G01 X8.1801 Y11.5545
G01 X8.1623 Y11.4695
G01 X8.1454 Y11.3848
G01 X8.1293 Y11.3004
G01 X8.1141 Y11.2161
G01 X8.0997 Y11.1324
G01 X8.0863 Y11.0490
G01 X8.0737 Y10.9660
G01 X8.0602 Y10.8696
G01 X8.0495 Y10.7873
G01 X8.0397 Y10.7053
G01 X8.0308 Y10.6236
G01 X8.0228 Y10.5421
G01 X8.0156 Y10.4611
G01 X8.0093 Y10.3804
G01 X8.0039 Y10.3000
G01 X7.9987 Y10.2069
G01 X7.9952 Y10.1272
G01 X7.9925 Y10.0479
G01 X7.9908 Y9.9689
G01 X7.9899 Y9.8900
G01 X7.9899 Y9.8117
G01 X7.9907 Y9.7336
G01 X7.9925 Y9.6559
G01 X7.9951 Y9.5786
G01 X7.9986 Y9.5015
G01 X8.0030 Y9.4248
G01 X8.0092 Y9.3359
G01 X8.0155 Y9.2598
G01 X8.0226 Y9.1841
G01 X8.0307 Y9.1088
G01 X8.0396 Y9.0335
G01 X8.0494 Y8.9588
G01 X8.0600 Y8.8844
G01 X8.0716 Y8.8103
G01 X8.0861 Y8.7245
G01 X8.0996 Y8.6511
G01 X8.1139 Y8.5778
G01 X8.1291 Y8.5051
G01 X8.1479 Y8.4208
G01 X8.1650 Y8.3487
G01 X8.1830 Y8.2768
G01 X8.2019 Y8.2054
G01 X8.2249 Y8.1227
G01 X8.2456 Y8.0520
G01 X8.2673 Y7.9814
G01 X8.2936 Y7.8999
G01 X8.3171 Y7.8300
G01 X8.3415 Y7.7607
G01 X8.3710 Y7.6804
G01 X8.3973 Y7.6115
G01 X8.4290 Y7.5320
G01 X8.4558 Y7.4672
G01 X8.4811 Y7.4086
G01 X8.5067 Y7.3513
G01 X8.5417 Y7.2767
G01 X8.5689 Y7.2214
G01 X8.5968 Y7.1665
G01 X8.6345 Y7.0957
G01 X8.6638 Y7.0428
G01 X8.6935 Y6.9912
G01 X8.7337 Y6.9241
G01 X8.7650 Y6.8741
G01 X8.8069 Y6.8097
G01 X8.8391 Y6.7620
G01 X8.8722 Y6.7148
G01 X8.9165 Y6.6542
G01 X8.9508 Y6.6089
G01 X8.9853 Y6.5650
G01 X9.0317 Y6.5081
G01 X9.0677 Y6.4658
G01 X9.1160 Y6.4111
G01 X9.1528 Y6.3711
G01 X9.2021 Y6.3196
G01 X9.2403 Y6.2812
G01 X9.2910 Y6.2322
G01 X9.3302 Y6.1958
G01 X9.3822 Y6.1495
G01 X9.4224 Y6.1151
G01 X9.4755 Y6.0714
G01 X9.5167 Y6.0390
G01 X9.5710 Y5.9979
G01 X9.6130 Y5.9675
G01 X9.6685 Y5.9291
G01 X9.7113 Y5.9006
G01 X9.7678 Y5.8648
G01 X9.8114 Y5.8384
G01 X9.8694 Y5.8049
G01 X9.9274 Y5.7732
G01 X9.9721 Y5.7499
G01 X10.0310 Y5.7208
G01 X10.0764 Y5.6995
G01 X10.1361 Y5.6730
G01 X10.1967 Y5.6478
G01 X10.2431 Y5.6296
G01 X10.3044 Y5.6070
G01 X10.3656 Y5.5861
G01 X10.4128 Y5.5710
G01 X10.4746 Y5.5527
G01 X10.5221 Y5.5396
G01 X10.5845 Y5.5239
G01 X10.6477 Y5.5094
G01 X10.6958 Y5.4995
G01 X10.7595 Y5.4876
G01 X10.8228 Y5.4774
G01 X10.8714 Y5.4705
G01 X10.9351 Y5.4628
G01 X10.9995 Y5.4565
G01 X11.0484 Y5.4527
G01 X11.1131 Y5.4490
G01 X11.1778 Y5.4468
G01 X11.2426 Y5.4460
G01 X11.3070 Y5.4466
G01 X11.3720 Y5.4487
G01 X11.4212 Y5.4513
G01 X11.4862 Y5.4560
G01 X11.5507 Y5.4620
G01 X11.6156 Y5.4696
G01 X11.6649 Y5.4763
G01 X11.7297 Y5.4864
G01 X11.7945 Y5.4979
G01 X11.8586 Y5.5107
G01 X11.9232 Y5.5251
G01 X11.9720 Y5.5370
G01 X12.0363 Y5.5539
G01 X12.0999 Y5.5720
G01 X12.1483 Y5.5868
G01 X12.2115 Y5.6075
G01 X12.2755 Y5.6299
G01 X12.3225 Y5.6473
G01 X12.3540 Y5.6594
G01 X12.4174 Y5.6850
G01 X12.4800 Y5.7118
G01 X12.5262 Y5.7326
G01 X12.5573 Y5.7470
G01 X12.6191 Y5.7769
G01 X12.6806 Y5.8083
G01 X12.7417 Y5.8410
G01 X12.8028 Y5.8753
G01 X12.8476 Y5.9016
G01 X12.8776 Y5.9197
G01 X12.9373 Y5.9569
G01 X12.9965 Y5.9955
G01 X13.0556 Y6.0358
G01 X13.1138 Y6.0771
G01 X13.1715 Y6.1199
G01 X13.2283 Y6.1636
G01 X13.2852 Y6.2094
G01 X13.3412 Y6.2562
G01 X13.3965 Y6.3044
G01 X13.4513 Y6.3540
G01 X13.5053 Y6.4048
G01 X13.5588 Y6.4571
G01 X13.6115 Y6.5107
G01 X13.6635 Y6.5656
G01 X13.7148 Y6.6218
G01 X13.7653 Y6.6794
G01 X13.8151 Y6.7384
G01 X13.8641 Y6.7986
G01 X13.9123 Y6.8602
G01 X13.9596 Y6.9232
G01 X14.0061 Y6.9874
G01 X14.0518 Y7.0530
G01 X14.0965 Y7.1198
G01 X14.1402 Y7.1876
G01 X14.1831 Y7.2571
G01 X14.2149 Y7.3105
G01 X14.2562 Y7.3822
G01 X14.2963 Y7.4549
G01 X14.3356 Y7.5293
G01 X14.3646 Y7.5863
G01 X14.4021 Y7.6630
G01 X14.4384 Y7.7405
G01 X14.4738 Y7.8197
G01 X14.4998 Y7.8803
G01 X14.5333 Y7.9618
G01 X14.5655 Y8.0441
G01 X14.5892 Y8.1074
G01 X14.6194 Y8.1919
G01 X14.6625 Y8.3253
G01 X14.7115 Y8.4810
G01 X14.7476 Y8.5992
G01 X14.7807 Y8.7115
G01 X14.8181 Y8.8434
G01 X14.8448 Y8.9426
G01 X14.8686 Y9.0360
G01 X14.8895 Y9.1238
G01 X14.9075 Y9.2065
G01 X14.9226 Y9.2832
G01 X14.9290 Y9.3195
G01 X14.9346 Y9.3545
G01 X14.9395 Y9.3881
G01 X14.9437 Y9.4205
G01 X14.9470 Y9.4516
G01 X14.9496 Y9.4815
G01 X14.9513 Y9.5088
G01 X14.9523 Y9.5362
G01 X14.9525 Y9.5625
G01 X14.9518 Y9.5878
G01 X14.9501 Y9.6121
G01 X14.9486 Y9.6264
G01 X14.9457 Y9.6470
G01 X14.9430 Y9.6613
G01 X14.9385 Y9.6804
G01 X14.9349 Y9.6931
G01 X14.9305 Y9.7059
G01 X14.9235 Y9.7230
G01 X14.9172 Y9.7358
G01 X14.9098 Y9.7485
G01 X14.8995 Y9.7634
G01 X14.8918 Y9.7730
G01 X14.8815 Y9.7838
G01 X14.8721 Y9.7924
G01 X14.8597 Y9.8018
G01 X14.8487 Y9.8089
G01 X14.8372 Y9.8151
G01 X14.8252 Y9.8204
G01 X14.8129 Y9.8247
G01 X14.7981 Y9.8285
G01 X14.7858 Y9.8307
G01 X14.7677 Y9.8324
G01 X14.7524 Y9.8325
G01 X14.7406 Y9.8318
G01 X14.7264 Y9.8301
G01 X14.7083 Y9.8266
G01 X14.6931 Y9.8227
G01 X14.6749 Y9.8167
G01 X14.6611 Y9.8114
G01 X14.6425 Y9.8033
G01 X14.6295 Y9.7969
G01 X14.6104 Y9.7866
G01 X14.5979 Y9.7794
G01 X14.5780 Y9.7670
G01 X14.5448 Y9.7444
G01 X14.5107 Y9.7189
G01 X14.4754 Y9.6903
G01 X14.4387 Y9.6588
G01 X14.4006 Y9.6241
G01 X14.3608 Y9.5864
G01 X14.3195 Y9.5456
G01 X14.2761 Y9.5012
G01 X14.2315 Y9.4541
G01 X14.1694 Y9.3867
G01 X14.1203 Y9.3318
G01 X14.0526 Y9.2544
G01 X13.9815 Y9.1710
G01 X13.9070 Y9.0818
G01 X13.8859 Y9.0562
G01 X13.8595 Y9.0223
G01 X13.8332 Y8.9893
G01 X13.7935 Y8.9413
G01 X13.7536 Y8.8948
G01 X13.7134 Y8.8499
G01 X13.6865 Y8.8209
G01 X13.6594 Y8.7925
G01 X13.6323 Y8.7649
G01 X13.5915 Y8.7247
G01 X13.5641 Y8.6987
G01 X13.5367 Y8.6734
G01 X13.5092 Y8.6488
G01 X13.4679 Y8.6132
G01 X13.4264 Y8.5790
G01 X13.3847 Y8.5464
G01 X13.3430 Y8.5152
G01 X13.3011 Y8.4855
G01 X13.2592 Y8.4572
G01 X13.2172 Y8.4304
G01 X13.1752 Y8.4050
G01 X13.1471 Y8.3889
G01 X13.1190 Y8.3734
G01 X13.0769 Y8.3513
G01 X13.0348 Y8.3306
G01 X12.9926 Y8.3112
G01 X12.9645 Y8.2991
G01 X12.9365 Y8.2875
G01 X12.8944 Y8.2714
G01 X12.8523 Y8.2565
G01 X12.8103 Y8.2430
G01 X12.7824 Y8.2347
G01 X12.7544 Y8.2270
G01 X12.7126 Y8.2165
G01 X12.6848 Y8.2102
G01 X12.6570 Y8.2045
G01 X12.6153 Y8.1970
G01 X12.5877 Y8.1927
G01 X12.5600 Y8.1889
G01 X12.5187 Y8.1843
G01 X12.4912 Y8.1819
G01 X12.4638 Y8.1801
G01 X12.4228 Y8.1783
G01 X12.3955 Y8.1779
G01 X12.3684 Y8.1779
G01 X12.3277 Y8.1790
G01 X12.3007 Y8.1803
G01 X12.2738 Y8.1822
G01 X12.2336 Y8.1860
G01 X12.2070 Y8.1892
G01 X12.1804 Y8.1930
G01 X12.1407 Y8.1995
G01 X12.1143 Y8.2045
G01 X12.0881 Y8.2100
G01 X12.0489 Y8.2192
G01 X12.0229 Y8.2260
G01 X11.9970 Y8.2333
G01 X11.9585 Y8.2451
G01 X11.9329 Y8.2537
G01 X11.9075 Y8.2627
G01 X11.8695 Y8.2772
G01 X11.8444 Y8.2874
G01 X11.8195 Y8.2982
G01 X11.7946 Y8.3094
G01 X11.7699 Y8.3211
G01 X11.7210 Y8.3460
G01 X11.6727 Y8.3729
G01 X11.6369 Y8.3942
G01 X11.5897 Y8.4244
G01 X11.5433 Y8.4564
G01 X11.4976 Y8.4904
G01 X11.4638 Y8.5170
G01 X11.4195 Y8.5542
G01 X11.3868 Y8.5833
G01 X11.3439 Y8.6236
G01 X11.3124 Y8.6551
G01 X11.2711 Y8.6986
G01 X11.2308 Y8.7439
G01 X11.1915 Y8.7909
G01 X11.1627 Y8.8273
G01 X11.1252 Y8.8774
G01 X11.0888 Y8.9292
G01 X11.0535 Y8.9827
G01 X11.0278 Y9.0240
G01 X10.9945 Y9.0804
G01 X10.9625 Y9.1385
G01 X10.9318 Y9.1982
G01 X10.9095 Y9.2440
G01 X10.8811 Y9.3065
G01 X10.8606 Y9.3544
G01 X10.8345 Y9.4197
G01 X10.8159 Y9.4697
G01 X10.7923 Y9.5376
G01 X10.7756 Y9.5896
G01 X10.7546 Y9.6602
G01 X10.7399 Y9.7141
G01 X10.7217 Y9.7872
G01 X10.7091 Y9.8430
G01 X10.6937 Y9.9187
G01 X10.6832 Y9.9764
G01 X10.6707 Y10.0545
G01 X10.6625 Y10.1140
G01 X10.6531 Y10.1946
G01 X10.6472 Y10.2558
G01 X10.6410 Y10.3387
G01 X10.6375 Y10.4017
G01 X10.6351 Y10.4654
G01 X10.6337 Y10.5298
G01 X10.6336 Y10.6169
G01 X10.6348 Y10.6829
G01 X10.6372 Y10.7497
G01 X10.6406 Y10.8172
G01 X10.6453 Y10.8853
G01 X10.6510 Y10.9541
G01 X10.6580 Y11.0235
G01 X10.6662 Y11.0936
G01 X10.6691 Y11.1167
G01 X10.6757 Y11.1627
G01 X10.6900 Y11.2567
G01 X10.7034 Y11.3395
G01 X10.7197 Y11.4348
G01 X10.7348 Y11.5188
G01 X10.7508 Y11.6034
G01 X10.7676 Y11.6885
G01 X10.7878 Y11.7864
G01 X10.8064 Y11.8726
G01 X10.8287 Y11.9719
G01 X10.8520 Y12.0718
G01 X10.8764 Y12.1724
G01 X10.8986 Y12.2610
G01 X10.9250 Y12.3629
G01 X10.9524 Y12.4655
G01 X10.9809 Y12.5688
G01 X11.0068 Y12.6596
G01 X11.0373 Y12.7641
G01 X11.0688 Y12.8693
G01 X11.1014 Y12.9750
G01 X11.1351 Y13.0815
